; generated by PrusaSlicer 2.0.0+win64 on 2019-07-07 at 12:51:52

; 

; external perimeters extrusion width = 0.44mm
; perimeters extrusion width = 0.44mm
; infill extrusion width = 0.44mm
; solid infill extrusion width = 0.44mm
; top infill extrusion width = 0.40mm
; first layer extrusion width = 0.44mm

M201 X9000 Y9000 Z500 E10000 ; sets maximum accelerations, mm/sec^2
M203 X500 Y500 Z12 E120 ; sets maximum feedrates, mm/sec
M204 P1500 R1500 T1500 ; sets acceleration (P, T) and retract acceleration (R), mm/sec^2
M205 X10.00 Y10.00 Z0.20 E2.50 ; sets the jerk limits, mm/sec
M205 S0 T0 ; sets the minimum extruding and travel feed rate, mm/sec
M107
M201 X500.00 Y500.00 Z100.00 E5000.00 ;Setup machine max acceleration
M203 X500.00 Y500.00 Z10.00 E50.00 ;Setup machine max feedrate
M204 P500.00 R1000.00 T500.00 ;Setup Print/Retract/Travel acceleration
M205 X8.00 Y8.00 Z0.40 E5.00 ;Setup Jerk
M220 S100 ;Reset Feedrate
M221 S100 ;Reset Flowrate

M117 Heating... ;Put printing message on LCD screen
M104 S210 ; set extruder temp
M140 S60 ; set bed temp
G1 Z20 ; this is a good start heating position
G28 X Y; Home XY
M84 ; disable motors
M190 S60 ; wait for bed temp
M109 S210 ; wait for extruder temp

; Start of print
G21; metric values
G90 ; absolute positioning
M82; set extruder to absolute mode

G28;
M92 E94.55 ;Calibrated Extruder

; Prepare nozzle
G92 E0 ; Set extrusion distance to 0
G92 E0 ; Set extrusion distance to 0
G1 F1800 E3;
G92 E0 ; Set extrusion distance to 0
G90;


; You may want to adjust the X and Y here so the nozzle is really above the bed!
G1 X5.0 Y5.0 F7200 ; Move to a position in the left front of the bed
G1 Z0.6; Move nozzle above 0.6 mm of the bed

G91 ; Use relative mode
; Make some jerky zick-zack move at the beginning
; This is supposed to get rid of residue at the nozzle
G1 X1.0 Y5.0 Z-0.1 E-1.0 F7200 ; X6 Y10 Z0.1, retract a tiny bit / 120mm/s
G1 X1.0 Y-5.0 Z0.1 E2.0 F7200 ; X7 Y5 Z0.2 extrude a tiny bit
G1 X2.0 Y5.0 Z-0.1 F7200 ; X9 Y10 Z0.1
G1 X2.0 Y-5.0 Z0.1 F7200 ; X11 Y5 Z0.2
G1 X2.0 Y5.0 F7200 ; X13 Y10
G1 X2.0 Y-5.0 F7200 ; X15 Y5

; now print a line of filament to prepare extrusion
G1 Y50 E20 F1000 ; prints a line in the front
G1 Y50 E40 F1000 ; prints a line in the front

; Done with the dancing :)
G92 E0 ; Set extrusion distance to 0
G90 ; switch back to absolute mode

M117 Printing... ;Put printing message on LCD screen
; Start of actual GCode for the print
M900 K200; Filament gcode
G21 ; set units to millimeters
G90 ; use absolute coordinates
M83 ; use relative distances for extrusion
;BEFORE_LAYER_CHANGE
;Layer 0
;0.2mm
;Printing layer 0 at 0.2mm


G1 Z0.200 F12000.000
;AFTER_LAYER_CHANGE
;Layer 0
;0.2mm
;Printing layer 0 at 0.2mm


G1 E-5.00000 F2700.00000
G1 X75.610 Y74.773 F12000.000
G1 E5.00000 F2700.00000
M204 S1500
G1 F1200
G1 X78.243 Y72.109 E0.12614
G1 X86.820 Y66.484 E0.34543
G1 X95.189 Y63.114 E0.30383
G1 X105.337 Y61.174 E0.34796
G1 X114.235 Y61.123 E0.29969
G1 X124.558 Y63.045 E0.35363
G1 X132.987 Y66.335 E0.30470
G1 X141.575 Y71.935 E0.34528
G1 X147.928 Y78.227 E0.30116
G1 X153.547 Y86.816 E0.34565
G1 X156.901 Y95.202 E0.30415
G1 X158.825 Y105.360 E0.34820
G1 X158.863 Y114.466 E0.30666
G1 X156.964 Y124.619 E0.34785
G1 X153.690 Y133.048 E0.30455
G1 X148.120 Y141.613 E0.34408
G1 X141.844 Y147.937 E0.30006
G1 X133.264 Y153.516 E0.34468
G1 X124.873 Y156.830 E0.30382
G1 X114.688 Y158.731 E0.34893
G1 X105.557 Y158.775 E0.30751
G1 X95.381 Y156.913 E0.34839
G1 X86.918 Y153.692 E0.30496
G1 X78.333 Y148.165 E0.34387
G1 X72.002 Y141.911 E0.29971
G1 X66.432 Y133.328 E0.34457
G1 X63.127 Y124.919 E0.30429
G1 X61.234 Y114.727 E0.34912
G1 X61.207 Y105.614 E0.30691
G1 X63.108 Y95.459 E0.34793
G1 X66.382 Y87.036 E0.30433
G1 X71.966 Y78.457 E0.34475
G1 X75.567 Y74.815 E0.17248
G1 E-3.00000 F2700.00000
G1 F9600
G1 X78.243 Y72.109 E-1.01681
G1 X81.007 Y70.296 E-0.88319
G1 E-0.10000 F2700.00000
G1 X77.568 Y76.811 F12000.000
G1 E5.00000 F2700.00000
G1 F1200
G1 X79.443 Y74.932 E0.08938
G1 X80.519 Y76.001 E0.05107
G1 X81.401 Y75.244 E0.03916
G1 X83.133 Y73.905 E0.07371
G1 X84.955 Y72.646 E0.07459
G1 X86.802 Y71.498 E0.07324
G1 X88.725 Y70.433 E0.07402
G1 X89.784 Y69.913 E0.03974
G1 X89.175 Y68.563 E0.04990
G1 X95.189 Y66.158 E0.21813
G1 X95.790 Y67.497 E0.04945
G1 X96.900 Y67.141 E0.03927
G1 X99.033 Y66.569 E0.07437
G1 X101.214 Y66.096 E0.07515
G1 X103.373 Y65.734 E0.07373
G1 X105.568 Y65.472 E0.07446
G1 X106.746 Y65.388 E0.03974
G1 X106.730 Y63.961 E0.04805
G1 X113.247 Y63.953 E0.21948
G1 X113.234 Y65.382 E0.04815
G1 X114.415 Y65.466 E0.03985
G1 X116.610 Y65.727 E0.07447
G1 X118.814 Y66.095 E0.07522
G1 X120.951 Y66.557 E0.07366
G1 X123.085 Y67.126 E0.07436
G1 X124.196 Y67.482 E0.03930
G1 X124.788 Y66.142 E0.04935
G1 X130.814 Y68.529 E0.21828
G1 X130.204 Y69.888 E0.05017
G1 X131.263 Y70.408 E0.03974
G1 X133.191 Y71.471 E0.07414
G1 X135.076 Y72.640 E0.07468
G1 X136.863 Y73.877 E0.07319
G1 X138.600 Y75.213 E0.07382
G1 X139.484 Y75.970 E0.03920
G1 X140.562 Y74.898 E0.05121
G1 X145.097 Y79.423 E0.21576
G1 X144.029 Y80.507 E0.05128
G1 X144.785 Y81.389 E0.03913
G1 X146.123 Y83.125 E0.07381
G1 X147.384 Y84.947 E0.07463
G1 X148.531 Y86.794 E0.07320
G1 X149.595 Y88.719 E0.07409
G1 X150.115 Y89.779 E0.03976
G1 X151.460 Y89.169 E0.04973
G1 X153.855 Y95.188 E0.21815
G1 X152.524 Y95.782 E0.04909
G1 X152.879 Y96.892 E0.03925
G1 X153.449 Y99.029 E0.07448
G1 X153.920 Y101.212 E0.07521
G1 X154.279 Y103.375 E0.07386
G1 X154.541 Y105.574 E0.07459
G1 X154.623 Y106.753 E0.03977
G1 X156.036 Y106.743 E0.04758
G1 X156.044 Y113.275 E0.21998
G1 X154.629 Y113.261 E0.04765
G1 X154.547 Y114.440 E0.03981
G1 X154.291 Y116.643 E0.07470
G1 X153.925 Y118.850 E0.07535
G1 X153.466 Y120.994 E0.07384
G1 X152.901 Y123.136 E0.07459
G1 X152.548 Y124.249 E0.03933
G1 X153.873 Y124.843 E0.04892
G1 X151.499 Y130.875 E0.21829
G1 X150.155 Y130.270 E0.04962
G1 X149.639 Y131.330 E0.03971
G1 X148.580 Y133.256 E0.07400
G1 X147.416 Y135.138 E0.07455
G1 X146.186 Y136.919 E0.07287
G1 X144.855 Y138.652 E0.07359
G1 X144.100 Y139.535 E0.03912
G1 X145.163 Y140.600 E0.05068
G1 X140.654 Y145.109 E0.21477
G1 X139.582 Y144.057 E0.05060
G1 X138.698 Y144.810 E0.03911
G1 X136.969 Y146.139 E0.07346
G1 X135.151 Y147.394 E0.07440
G1 X133.304 Y148.532 E0.07304
G1 X131.378 Y149.589 E0.07400
G1 X130.316 Y150.103 E0.03974
G1 X130.920 Y151.424 E0.04892
G1 X124.891 Y153.790 E0.21814
G1 X124.298 Y152.489 E0.04815
G1 X123.187 Y152.839 E0.03925
G1 X121.044 Y153.401 E0.07461
G1 X118.853 Y153.864 E0.07543
G1 X116.683 Y154.222 E0.07405
G1 X114.472 Y154.478 E0.07498
G1 X113.292 Y154.562 E0.03984
G1 X113.301 Y155.944 E0.04656
G1 X106.745 Y155.955 E0.22078
G1 X106.755 Y154.569 E0.04667
G1 X105.573 Y154.487 E0.03991
G1 X103.360 Y154.235 E0.07502
G1 X101.144 Y153.877 E0.07559
G1 X98.992 Y153.425 E0.07406
G1 X96.844 Y152.868 E0.07473
G1 X95.731 Y152.523 E0.03925
G1 X95.139 Y153.824 E0.04815
G1 X89.087 Y151.485 E0.21852
G1 X89.692 Y150.160 E0.04906
G1 X88.626 Y149.649 E0.03982
G1 X86.698 Y148.601 E0.07391
G1 X84.812 Y147.445 E0.07452
G1 X83.025 Y146.223 E0.07287
G1 X81.293 Y144.898 E0.07345
G1 X80.413 Y144.146 E0.03900
G1 X79.343 Y145.200 E0.05059
G1 X74.834 Y140.708 E0.21437
G1 X75.895 Y139.636 E0.05079
G1 X75.140 Y138.756 E0.03905
G1 X73.812 Y137.025 E0.07348
G1 X72.563 Y135.207 E0.07428
G1 X71.427 Y133.358 E0.07307
G1 X70.376 Y131.431 E0.07392
G1 X69.861 Y130.367 E0.03979
G1 X68.530 Y130.974 E0.04927
G1 X66.170 Y124.932 E0.21847
G1 X67.484 Y124.333 E0.04863
G1 X67.137 Y123.219 E0.03932
G1 X66.576 Y121.073 E0.07468
G1 X66.112 Y118.880 E0.07550
G1 X65.760 Y116.708 E0.07408
G1 X65.502 Y114.501 E0.07485
G1 X65.422 Y113.318 E0.03994
G1 X64.024 Y113.335 E0.04708
G1 X64.026 Y106.788 E0.22048
G1 X65.426 Y106.792 E0.04716
G1 X65.510 Y105.615 E0.03975
G1 X65.768 Y103.411 E0.07472
G1 X66.135 Y101.200 E0.07549
G1 X66.593 Y99.056 E0.07383
G1 X67.160 Y96.921 E0.07440
G1 X67.514 Y95.811 E0.03924
G1 X66.200 Y95.223 E0.04848
G1 X68.575 Y89.200 E0.21806
G1 X69.912 Y89.805 E0.04943
G1 X70.430 Y88.745 E0.03974
G1 X71.491 Y86.819 E0.07403
G1 X72.660 Y84.937 E0.07462
G1 X73.895 Y83.152 E0.07309
G1 X75.230 Y81.419 E0.07368
G1 X75.986 Y80.535 E0.03917
G1 X74.925 Y79.461 E0.05083
G1 X77.526 Y76.854 E0.12404
G1 E-3.00000 F2700.00000
G1 F9600
G1 X79.443 Y74.932 E-0.72518
G1 X80.519 Y76.001 E-0.40518
G1 X81.401 Y75.244 E-0.31068
G1 X82.760 Y74.193 E-0.45896
G1 E-0.10000 F2700.00000
G1 X80.543 Y76.136 F12000.000
G1 E5.00000 F2700.00000
G1 F1200
G1 X143.816 Y139.409 E3.02330
G1 X144.076 Y139.105 E0.01350
G1 X80.973 Y76.003 E3.01517
G1 X81.277 Y75.743 E0.01350
G1 X144.336 Y138.802 E3.01309
G1 X144.595 Y138.498 E0.01350
G1 X81.580 Y75.483 E3.01101
G1 X81.897 Y75.237 E0.01357
G1 X144.842 Y138.181 E3.00762
G1 X145.086 Y137.862 E0.01358
G1 X82.215 Y74.991 E3.00413
G1 X82.533 Y74.745 E0.01357
G1 X145.331 Y137.544 E3.00064
G1 X145.576 Y137.225 E0.01358
G1 X82.851 Y74.500 E2.99715
G1 X83.168 Y74.254 E0.01357
G1 X145.821 Y136.906 E2.99366
G1 X146.058 Y136.581 E0.01362
G1 X83.495 Y74.017 E2.98941
G1 X83.828 Y73.787 E0.01368
G1 X146.288 Y136.247 E2.98449
G1 X146.518 Y135.914 E0.01368
G1 X84.161 Y73.557 E2.97956
G1 X84.494 Y73.326 E0.01368
G1 X146.748 Y135.581 E2.97464
G1 X146.978 Y135.247 E0.01368
G1 X84.827 Y73.096 E2.96971
G1 X85.162 Y72.868 E0.01370
G1 X147.206 Y134.911 E2.96457
G1 X147.421 Y134.563 E0.01383
G1 X85.510 Y72.652 E2.95826
G1 X85.857 Y72.436 E0.01382
G1 X147.636 Y134.215 E2.95195
G1 X147.852 Y133.867 E0.01383
G1 X86.205 Y72.220 E2.94564
G1 X86.552 Y72.004 E0.01382
G1 X148.067 Y133.519 E2.93933
G1 X148.282 Y133.171 E0.01383
G1 X86.899 Y71.788 E2.93302
G1 X87.260 Y71.585 E0.01397
G1 X148.485 Y132.810 E2.92549
G1 X148.685 Y132.447 E0.01402
G1 X87.622 Y71.384 E2.91772
G1 X87.985 Y71.183 E0.01400
G1 X148.885 Y132.083 E2.90994
G1 X149.085 Y131.720 E0.01402
G1 X88.347 Y70.982 E2.90216
G1 X88.710 Y70.782 E0.01400
G1 X149.285 Y131.356 E2.89439
G1 X149.476 Y130.984 E0.01413
G1 X89.082 Y70.590 E2.88578
G1 X89.459 Y70.404 E0.01422
G1 X149.661 Y130.605 E2.87653
G1 X149.845 Y130.227 E0.01424
G1 X89.837 Y70.219 E2.86729
G1 X90.174 Y70.054 E0.01268
G1 X90.124 Y69.942 E0.00413
G1 X150.100 Y129.919 E2.86580
G1 X151.125 Y130.380 E0.03798
G1 X89.661 Y68.916 E2.93688
G1 X89.575 Y68.724 E0.00714
G1 X89.901 Y68.593 E0.01189
G1 X151.462 Y130.154 E2.94151
G1 X151.621 Y129.749 E0.01468
G1 X90.304 Y68.432 E2.92989
G1 X90.706 Y68.271 E0.01464
G1 X151.781 Y129.345 E2.91826
G1 X151.940 Y128.941 E0.01468
G1 X91.109 Y68.110 E2.90663
G1 X91.511 Y67.949 E0.01464
G1 X152.099 Y128.537 E2.89501
G1 X152.258 Y128.132 E0.01468
G1 X91.914 Y67.788 E2.88338
G1 X92.316 Y67.627 E0.01464
G1 X152.417 Y127.728 E2.87175
G1 X152.576 Y127.324 E0.01468
G1 X92.719 Y67.466 E2.86013
G1 X93.121 Y67.305 E0.01464
G1 X152.735 Y126.920 E2.84850
G1 X152.894 Y126.515 E0.01468
G1 X93.523 Y67.144 E2.83688
G1 X93.926 Y66.984 E0.01464
G1 X153.054 Y126.111 E2.82525
G1 X153.213 Y125.707 E0.01468
G1 X94.328 Y66.823 E2.81362
G1 X94.731 Y66.662 E0.01464
G1 X153.510 Y125.441 E2.80858
G1 E-3.00000 F2700.00000
G1 F9600
G1 X148.481 Y120.412 E-1.90000
G1 E-0.10000 F2700.00000
G1 X152.533 Y123.901 F12000.000
G1 E5.00000 F2700.00000
G1 F1200
G1 X96.284 Y67.652 E2.68770
G1 X96.711 Y67.515 E0.01513
G1 X152.527 Y123.331 E2.66702
G1 X152.656 Y122.897 E0.01530
G1 X97.144 Y67.384 E2.65252
G1 X97.588 Y67.265 E0.01554
G1 X152.774 Y122.451 E2.63692
G1 X152.891 Y122.005 E0.01558
G1 X98.032 Y67.146 E2.62131
G1 X98.476 Y67.027 E0.01554
G1 X153.009 Y121.560 E2.60570
G1 X153.127 Y121.114 E0.01558
G1 X98.920 Y66.908 E2.59009
G1 X99.376 Y66.799 E0.01581
G1 X153.234 Y120.657 E2.57345
G1 X153.333 Y120.193 E0.01604
G1 X99.839 Y66.699 E2.55607
G1 X100.302 Y66.599 E0.01601
G1 X153.432 Y119.729 E2.53869
G1 X153.531 Y119.265 E0.01604
G1 X100.765 Y66.498 E2.52131
G1 X101.228 Y66.398 E0.01601
G1 X153.631 Y118.801 E2.50393
G1 X153.711 Y118.318 E0.01654
G1 X101.708 Y66.315 E2.48481
G1 X102.191 Y66.234 E0.01653
G1 X153.791 Y117.835 E2.46558
G1 X153.871 Y117.352 E0.01655
G1 X102.673 Y66.154 E2.44635
G1 X103.156 Y66.073 E0.01653
G1 X153.952 Y116.868 E2.42713
G1 X154.022 Y116.376 E0.01682
G1 X103.648 Y66.001 E2.40699
G1 X104.151 Y65.941 E0.01712
G1 X154.081 Y115.871 E2.38575
G1 X154.140 Y115.366 E0.01716
G1 X104.655 Y65.881 E2.36451
G1 X105.158 Y65.821 E0.01712
G1 X154.199 Y114.862 E2.34328
G1 X154.255 Y114.355 E0.01724
G1 X105.664 Y65.764 E2.32178
G1 X106.190 Y65.726 E0.01781
G1 X154.291 Y113.828 E2.29840
G1 X154.328 Y113.301 E0.01784
G1 X106.716 Y65.689 E2.27502
G1 X107.046 Y65.665 E0.01120
G1 X107.044 Y65.454 E0.00715
G1 X154.553 Y112.962 E2.27006
G1 X155.122 Y112.968 E0.01923
G1 X107.038 Y64.884 E2.29755
G1 X107.032 Y64.315 E0.01925
G1 X155.691 Y112.974 E2.32504
G1 X155.746 Y112.974 E0.00186
G1 X155.745 Y112.465 E0.01721
G1 X107.538 Y64.258 E2.30342
G1 X108.101 Y64.257 E0.01901
G1 X155.744 Y111.901 E2.27651
G1 X155.744 Y111.337 E0.01906
G1 X108.664 Y64.257 E2.24959
G1 X109.226 Y64.256 E0.01901
G1 X155.743 Y110.773 E2.22267
G1 X155.742 Y110.208 E0.01906
G1 X109.789 Y64.255 E2.19576
G1 X110.352 Y64.254 E0.01901
G1 X155.742 Y109.644 E2.16884
G1 X155.741 Y109.080 E0.01906
G1 X110.914 Y64.253 E2.14192
G1 X111.477 Y64.253 E0.01901
G1 X155.740 Y108.516 E2.11501
G1 X155.740 Y107.952 E0.01906
G1 X154.836 Y107.049 E0.04316
G1 X155.396 Y107.045 E0.01891
G1 X155.918 Y107.567 E0.02493
G1 E-3.00000 F2700.00000
G1 F9600
G1 X155.396 Y107.045 E-0.19714
G1 X154.836 Y107.049 E-0.14954
G1 X155.740 Y107.952 E-0.34128
G1 X155.740 Y108.516 E-0.15071
G1 X152.932 Y105.707 E-1.06133
G1 E-0.10000 F2700.00000
G1 X155.256 Y107.530 F12000.000
G1 X153.899 Y108.891
G1 X152.340 Y110.001
G1 X110.033 Y109.974
G1 X111.101 Y108.922
G1 X149.330 Y93.608
G1 X150.303 Y92.034
G1 X151.038 Y90.219
G1 X151.897 Y90.588
G1 E5.00000 F2700.00000
G1 F1200
G1 X151.009 Y89.701 E0.04240
G1 X150.622 Y89.876 E0.01438
G1 X151.950 Y91.204 E0.06345
G1 X152.322 Y92.140 E0.03403
G1 X150.234 Y90.052 E0.09977
G1 X149.975 Y90.170 E0.00961
G1 X149.613 Y89.431 E0.02781
G1 X130.202 Y70.020 E0.92748
G1 X130.422 Y69.113 F12000.000
G1 F1200
G1 X129.728 Y68.419 E0.03314
G1 X128.795 Y68.050 E0.03391
G1 X130.112 Y69.367 E0.06292
G1 X129.937 Y69.755 E0.01440
G1 X127.862 Y67.680 E0.09916
G1 X126.929 Y67.310 E0.03391
G1 X152.695 Y93.076 E1.23114
G1 X153.067 Y94.012 E0.03403
G1 X125.996 Y66.941 E1.29352
G1 X125.063 Y66.571 E0.03391
G1 X153.439 Y94.948 E1.35590
G1 X153.473 Y95.032 E0.00307
G1 X153.119 Y95.190 E0.01311
G1 X124.794 Y66.866 E1.35341
G1 X124.621 Y67.256 E0.01443
G1 X152.729 Y95.364 E1.34305
G1 X152.340 Y95.538 E0.01441
G1 X124.449 Y67.647 E1.33269
G1 X124.360 Y67.848 E0.00741
G1 X123.956 Y67.718 E0.01433
G1 X152.302 Y96.064 E1.35441
G1 X152.566 Y96.891 E0.02934
G1 X123.127 Y67.452 E1.40666
G1 X122.349 Y67.238 E0.02724
G1 X152.777 Y97.666 E1.45389
G1 X152.982 Y98.434 E0.02687
G1 X121.581 Y67.033 E1.50039
G1 X120.818 Y66.833 E0.02668
G1 X153.180 Y99.196 E1.54636
G1 X153.335 Y99.914 E0.02482
G1 X120.099 Y66.677 E1.58811
G1 X119.380 Y66.522 E0.02485
G1 X153.490 Y100.632 E1.62986
G1 X153.640 Y101.345 E0.02463
G1 X118.667 Y66.372 E1.67110
G1 X117.990 Y66.259 E0.02317
G1 X153.752 Y102.021 E1.70879
G1 X153.865 Y102.697 E0.02315
G1 X117.314 Y66.146 E1.74648
G1 X116.637 Y66.033 E0.02317
G1 X153.977 Y103.373 E1.78418
G1 X154.056 Y104.015 E0.02185
G1 X115.994 Y65.953 E1.81865
G1 X115.355 Y65.878 E0.02175
G1 X154.132 Y104.654 E1.85283
G1 X154.208 Y105.294 E0.02176
G1 X114.716 Y65.802 E1.88701
G1 X114.093 Y65.742 E0.02116
G1 X154.266 Y105.916 E1.91959
G1 X154.308 Y106.521 E0.02050
G1 X113.486 Y65.699 E1.95058
G1 X112.931 Y65.659 E0.01880
G1 X112.941 Y65.153 E0.01711
G1 X112.039 Y64.252 E0.04306
G1 X112.602 Y64.251 E0.01901
G1 X113.123 Y64.772 E0.02489
G1 E-3.00000 F2700.00000
G1 F9600
G1 X112.602 Y64.251 E-0.19683
G1 X112.039 Y64.252 E-0.15032
G1 X112.941 Y65.153 E-0.34049
G1 X112.931 Y65.659 E-0.13528
G1 X113.486 Y65.699 E-0.14864
G1 X115.943 Y68.156 E-0.92844
G1 E-0.10000 F2700.00000
G1 X112.462 Y64.737 F12000.000
G1 X111.095 Y66.083
G1 X109.987 Y67.620
G1 X110.031 Y109.974
G1 X111.325 Y108.698
G1 X130.903 Y71.100
G1 X131.321 Y70.576
