; generated by PrusaSlicer 2.0.0+win64 on 2019-07-07 at 17:01:16

; 

; external perimeters extrusion width = 0.44mm
; perimeters extrusion width = 0.44mm
; infill extrusion width = 0.44mm
; solid infill extrusion width = 0.44mm
; top infill extrusion width = 0.40mm
; support material extrusion width = 0.35mm
; first layer extrusion width = 0.44mm

M201 X9000 Y9000 Z500 E10000 ; sets maximum accelerations, mm/sec^2
M203 X500 Y500 Z12 E120 ; sets maximum feedrates, mm/sec
M204 P1500 R1500 T1500 ; sets acceleration (P, T) and retract acceleration (R), mm/sec^2
M205 X10.00 Y10.00 Z0.20 E2.50 ; sets the jerk limits, mm/sec
M205 S0 T0 ; sets the minimum extruding and travel feed rate, mm/sec
M107
M201 X500.00 Y500.00 Z100.00 E5000.00 ;Setup machine max acceleration
M203 X500.00 Y500.00 Z10.00 E50.00 ;Setup machine max feedrate
M204 P500.00 R1000.00 T500.00 ;Setup Print/Retract/Travel acceleration
M205 X8.00 Y8.00 Z0.40 E5.00 ;Setup Jerk
M220 S100 ;Reset Feedrate
M221 S100 ;Reset Flowrate

M117 Heating... ;Put printing message on LCD screen
M104 S210 ; set extruder temp
M140 S60 ; set bed temp
G1 Z20 ; this is a good start heating position
G28 X Y; Home XY
M84 ; disable motors
M190 S60 ; wait for bed temp
M109 S210 ; wait for extruder temp

; Start of print
G21; metric values
G90 ; absolute positioning
M82; set extruder to absolute mode

G28;
M92 E94.55 ;Calibrated Extruder

; Prepare nozzle
G92 E0 ; Set extrusion distance to 0
G92 E0 ; Set extrusion distance to 0
G1 F1800 E3;
G92 E0 ; Set extrusion distance to 0
G90;


; You may want to adjust the X and Y here so the nozzle is really above the bed!
G1 X5.0 Y5.0 F7200 ; Move to a position in the left front of the bed
G1 Z0.6; Move nozzle above 0.6 mm of the bed

G91 ; Use relative mode
; Make some jerky zick-zack move at the beginning
; This is supposed to get rid of residue at the nozzle
G1 X1.0 Y5.0 Z-0.1 E-1.0 F7200 ; X6 Y10 Z0.1, retract a tiny bit / 120mm/s
G1 X1.0 Y-5.0 Z0.1 E2.0 F7200 ; X7 Y5 Z0.2 extrude a tiny bit
G1 X2.0 Y5.0 Z-0.1 F7200 ; X9 Y10 Z0.1
G1 X2.0 Y-5.0 Z0.1 F7200 ; X11 Y5 Z0.2
G1 X2.0 Y5.0 F7200 ; X13 Y10
G1 X2.0 Y-5.0 F7200 ; X15 Y5

; now print a line of filament to prepare extrusion
G1 Y50 E20 F1000 ; prints a line in the front
G1 Y50 E40 F1000 ; prints a line in the front

; Done with the dancing :)
G92 E0 ; Set extrusion distance to 0
G90 ; switch back to absolute mode

M117 Printing... ;Put printing message on LCD screen
; Start of actual GCode for the print
M900 K200; Filament gcode
G21 ; set units to millimeters
G90 ; use absolute coordinates
M83 ; use relative distances for extrusion
;BEFORE_LAYER_CHANGE
;Layer 0
;0.2mm
;Printing layer 0 at 0.2mm


G1 E-5.00000 F2700.00000
G1 Z0.200 F12000.000
;AFTER_LAYER_CHANGE
;Layer 0
;0.2mm
;Printing layer 0 at 0.2mm


G1 X96.743 Y93.521
G1 E5.00000 F2700.00000
M204 S1500
G1 F1200
G1 X104.480 Y91.056 E0.27346
G1 X105.034 Y90.982 E0.01882
G1 X115.106 Y90.982 E0.33921
G1 X115.797 Y91.095 E0.02359
G1 X122.769 Y93.535 E0.24874
G1 X123.174 Y93.817 E0.01662
G1 X125.805 Y96.194 E0.11940
G1 X126.123 Y96.589 E0.01711
G1 X126.342 Y97.048 E0.01711
G1 X128.671 Y104.352 E0.25818
G1 X128.688 Y115.303 E0.36882
G1 X128.570 Y115.993 E0.02359
G1 X126.061 Y122.982 E0.25006
G1 X125.748 Y123.436 E0.01858
G1 X123.568 Y125.775 E0.10768
G1 X123.014 Y126.198 E0.02346
G1 X115.344 Y128.737 E0.27210
G1 X104.748 Y128.730 E0.35685
G1 X96.892 Y126.216 E0.27782
G1 X96.426 Y125.893 E0.01907
G1 X93.941 Y123.552 E0.11497
G1 X93.489 Y122.926 E0.02602
G1 X93.331 Y122.478 E0.01601
G1 X91.745 Y115.529 E0.24002
G1 X91.741 Y104.418 E0.37420
G1 X93.379 Y97.251 E0.24759
G1 X93.565 Y96.751 E0.01797
G1 X93.910 Y96.261 E0.02017
G1 X96.192 Y93.930 E0.10988
G1 X96.695 Y93.557 E0.02108
G1 E-3.00000 F2700.00000
G1 F9600
G1 X103.465 Y91.382 E-1.90000
G1 E-0.10000 F2700.00000
G1 X103.459 Y107.412 F12000.000
G1 E5.00000 F2700.00000
G1 F1200
G1 X103.459 Y95.470 E0.40215
G1 X104.254 Y95.470 E0.02675
G1 X104.254 Y107.233 E0.39613
G1 X104.943 Y107.233 E0.02321
G1 X104.943 Y104.943 E0.07712
G1 X105.048 Y104.943 E0.00353
G1 X105.048 Y93.180 E0.39613
G1 X105.842 Y93.180 E0.02675
G1 X105.842 Y104.943 E0.39613
G1 X106.636 Y104.943 E0.02675
G1 X106.636 Y93.180 E0.39613
G1 X107.430 Y93.180 E0.02675
G1 X107.430 Y102.653 E0.31901
G1 X108.224 Y102.653 E0.02675
G1 X108.224 Y93.180 E0.31901
G1 X109.019 Y93.180 E0.02675
G1 X109.019 Y102.653 E0.31901
G1 X109.813 Y102.653 E0.02675
G1 X109.813 Y93.180 E0.31901
G1 X110.607 Y93.180 E0.02675
G1 X110.607 Y102.653 E0.31901
G1 X111.401 Y102.653 E0.02675
G1 X111.401 Y93.180 E0.31901
G1 X112.195 Y93.180 E0.02675
G1 X112.195 Y102.653 E0.31901
G1 X112.500 Y102.653 E0.01026
G1 X112.500 Y104.943 E0.07712
G1 X112.989 Y104.943 E0.01649
G1 X112.989 Y93.180 E0.39613
G1 X113.783 Y93.180 E0.02675
G1 X113.783 Y104.943 E0.39613
G1 X114.578 Y104.943 E0.02675
G1 X114.578 Y93.180 E0.39613
G1 X115.103 Y93.180 E0.01768
G1 X115.103 Y95.470 E0.07712
G1 X115.372 Y95.470 E0.00907
G1 X115.372 Y107.233 E0.39613
G1 X116.166 Y107.233 E0.02675
G1 X116.166 Y95.470 E0.39613
G1 X116.960 Y95.470 E0.02675
G1 X116.960 Y124.262 E0.96964
G1 X117.754 Y124.262 E0.02675
G1 X117.754 Y95.470 E0.96964
G1 X118.548 Y95.470 E0.02675
G1 X118.548 Y124.262 E0.96964
G1 X119.343 Y124.262 E0.02675
G1 X119.343 Y95.470 E0.96964
G1 X120.137 Y95.470 E0.02675
G1 X120.137 Y124.262 E0.96964
G1 X120.931 Y124.262 E0.02675
G1 X120.931 Y95.470 E0.96964
G1 X121.725 Y95.470 E0.02675
G1 X121.725 Y124.262 E0.96964
G1 X121.972 Y124.262 E0.00833
G1 X121.972 Y121.972 E0.07712
G1 X122.519 Y121.972 E0.01842
G1 X122.519 Y97.760 E0.81540
G1 X123.313 Y97.760 E0.02675
G1 X123.313 Y121.972 E0.81540
G1 X124.108 Y121.972 E0.02675
G1 X124.108 Y97.760 E0.81540
G1 X124.262 Y97.760 E0.00521
G1 X124.262 Y104.630 E0.23136
G1 X124.902 Y104.630 E0.02154
G1 X124.902 Y115.103 E0.35269
G1 X125.696 Y115.103 E0.02675
G1 X125.696 Y104.630 E0.35269
G1 X126.490 Y104.630 E0.02675
G1 X126.490 Y115.281 E0.35871
G1 E-3.00000 F2700.00000
G1 F9600
G1 X126.490 Y108.170 E-1.90000
G1 E-0.10000 F2700.00000
G1 X114.742 Y112.358 F12000.000
G1 X116.532 Y112.287
G1 E5.00000 F2700.00000
G1 F1200
G1 X116.532 Y107.576 E0.12268
G1 X116.043 Y107.576 E0.01276
G1 X116.043 Y112.156 E0.11928
G1 X115.553 Y112.156 E0.01276
G1 X115.553 Y107.576 E0.11928
G1 X115.063 Y107.576 E0.01276
G1 X115.063 Y112.156 E0.11928
G1 X114.573 Y112.156 E0.01276
G1 X114.573 Y107.576 E0.11928
G1 X114.446 Y107.576 E0.00330
G1 X114.446 Y105.286 E0.05964
G1 X114.083 Y105.286 E0.00946
G1 X114.083 Y114.446 E0.23856
G1 X113.593 Y114.446 E0.01276
G1 X113.593 Y105.286 E0.23856
G1 X113.103 Y105.286 E0.01276
G1 X113.103 Y107.825 E0.06611
G1 X112.613 Y107.340 E0.01795
G1 X112.613 Y105.286 E0.05348
G1 X112.156 Y105.286 E0.01190
G1 X112.156 Y102.997 E0.05964
G1 X112.123 Y102.997 E0.00086
G1 X112.123 Y106.855 E0.10050
G1 X111.744 Y106.480 E0.01390
G1 X111.633 Y106.422 E0.00325
G1 X111.633 Y102.997 E0.08922
G1 X111.143 Y102.997 E0.01276
G1 X111.143 Y106.301 E0.08606
G1 X110.654 Y106.179 E0.01315
G1 X110.654 Y102.997 E0.08289
G1 X110.164 Y102.997 E0.01276
G1 X110.164 Y106.058 E0.07973
G1 X110.050 Y106.030 E0.00305
G1 X109.950 Y106.030 E0.00260
G1 X109.674 Y106.098 E0.00742
G1 X109.674 Y102.997 E0.08078
G1 X109.184 Y102.997 E0.01276
G1 X109.184 Y106.220 E0.08394
G1 X108.694 Y106.341 E0.01315
G1 X108.694 Y102.997 E0.08711
G1 X108.204 Y102.997 E0.01276
G1 X108.204 Y106.531 E0.09206
G1 X107.714 Y107.016 E0.01795
G1 X107.714 Y102.997 E0.10469
G1 X107.576 Y102.997 E0.00359
G1 X107.576 Y105.286 E0.05964
G1 X107.224 Y105.286 E0.00917
G1 X107.224 Y107.501 E0.05768
G1 X106.734 Y107.986 E0.01795
G1 X106.734 Y105.286 E0.07031
G1 X106.244 Y105.286 E0.01276
G1 X106.244 Y114.446 E0.23856
G1 X106.734 Y114.446 E0.01276
G1 X106.734 Y112.014 E0.06334
G1 X107.224 Y112.499 E0.01795
G1 X107.224 Y114.446 E0.05071
G1 X107.576 Y114.446 E0.00917
G1 X107.576 Y116.736 E0.05964
G1 X107.714 Y116.736 E0.00359
G1 X107.714 Y112.984 E0.09772
G1 X108.204 Y113.469 E0.01795
G1 X108.204 Y116.736 E0.08509
G1 X108.694 Y116.736 E0.01276
G1 X108.694 Y113.659 E0.08014
G1 X109.184 Y113.780 E0.01315
G1 X109.184 Y116.736 E0.07698
G1 X109.674 Y116.736 E0.01276
G1 X109.674 Y113.902 E0.07382
G1 X109.950 Y113.970 E0.00742
G1 X110.050 Y113.970 E0.00260
G1 X110.164 Y113.942 E0.00305
G1 X110.164 Y116.736 E0.07277
G1 X110.654 Y116.736 E0.01276
G1 X110.654 Y113.821 E0.07593
G1 X111.143 Y113.699 E0.01315
G1 X111.143 Y116.736 E0.07909
G1 X111.633 Y116.736 E0.01276
G1 X111.633 Y113.578 E0.08225
G1 X111.744 Y113.520 E0.00325
G1 X112.123 Y113.145 E0.01390
G1 X112.123 Y116.736 E0.09353
G1 X112.156 Y116.736 E0.00086
G1 X112.156 Y114.446 E0.05964
G1 X112.613 Y114.446 E0.01190
G1 X112.613 Y112.660 E0.04652
G1 X113.103 Y112.175 E0.01795
G1 X113.103 Y114.577 E0.06255
G1 E-3.00000 F2700.00000
G1 F9600
G1 X113.103 Y112.175 E-0.64165
G1 X112.613 Y112.660 E-0.18417
G1 X112.613 Y114.446 E-0.47724
G1 X112.156 Y114.446 E-0.12210
G1 X112.156 Y116.223 E-0.47484
G1 E-0.10000 F2700.00000
G1 X112.989 Y112.056 F12000.000
G1 E5.00000 F2700.00000
G1 F1200
G1 X112.989 Y108.196 E0.12999
G1 X112.195 Y107.410 E0.03763
G1 X112.195 Y112.590 E0.17447
G1 X111.535 Y113.243 E0.03126
G1 X111.401 Y113.281 E0.00470
G1 X111.401 Y112.252 E0.03466
G1 X110.607 Y112.449 E0.02755
G1 X110.607 Y113.478 E0.03466
G1 X110.008 Y113.627 E0.02078
G1 X109.813 Y113.582 E0.00675
G1 X109.813 Y112.553 E0.03466
G1 X109.019 Y112.356 E0.02755
G1 X109.019 Y113.385 E0.03466
G1 X108.480 Y113.252 E0.01868
G1 X108.224 Y113.005 E0.01196
G1 X108.224 Y112.132 E0.02942
G1 X107.867 Y111.787 E0.01671
G1 X107.796 Y111.616 E0.00624
G1 X107.796 Y108.384 E0.10888
G1 X107.867 Y108.213 E0.00624
G1 X107.943 Y108.138 E0.00358
G1 X107.943 Y107.943 E0.00657
G1 X108.140 Y107.943 E0.00663
G1 X108.224 Y107.868 E0.00380
G1 X108.224 Y106.995 E0.02942
G1 X108.480 Y106.748 E0.01196
G1 X109.019 Y106.615 E0.01868
G1 X109.019 Y107.644 E0.03466
G1 X109.813 Y107.447 E0.02755
G1 X109.813 Y106.418 E0.03466
G1 X110.008 Y106.373 E0.00675
G1 X110.607 Y106.522 E0.02078
G1 X110.607 Y107.551 E0.03466
G1 X111.401 Y107.748 E0.02755
G1 X111.401 Y106.534 E0.04086
G1 X107.430 Y107.529 F12000.000
G1 F1200
G1 X107.430 Y112.471 E0.16643
G1 E-3.00000 F2700.00000
G1 F9600
G1 X107.430 Y107.529 E-1.32037
G1 E-0.67963 F2700.00000
G1 X105.754 Y114.577 F12000.000
G1 E5.00000 F2700.00000
G1 F1200
G1 X105.754 Y105.286 E0.24196
G1 X105.286 Y105.286 E0.01219
G1 X105.286 Y107.576 E0.05964
G1 X105.265 Y107.576 E0.00057
G1 X105.265 Y112.156 E0.11928
G1 X104.775 Y112.156 E0.01276
G1 X104.775 Y107.576 E0.11928
G1 X104.285 Y107.576 E0.01276
G1 X104.285 Y112.156 E0.11928
G1 X103.795 Y112.156 E0.01276
G1 X103.795 Y107.576 E0.11928
G1 X103.305 Y107.576 E0.01276
G1 X103.305 Y112.287 E0.12268
G1 X103.459 Y112.321 F12000.000
G1 F1200
G1 X103.459 Y124.262 E0.40215
G1 X104.254 Y124.262 E0.02675
G1 X104.254 Y112.500 E0.39613
G1 X104.943 Y112.500 E0.02321
G1 X104.943 Y114.790 E0.07712
G1 X105.048 Y114.790 E0.00353
G1 X105.048 Y126.552 E0.39613
G1 X105.842 Y126.552 E0.02675
G1 X105.842 Y114.790 E0.39613
G1 X106.636 Y114.790 E0.02675
G1 X106.636 Y126.552 E0.39613
G1 X107.430 Y126.552 E0.02675
G1 X107.430 Y117.080 E0.31901
G1 X108.224 Y117.080 E0.02675
G1 X108.224 Y126.552 E0.31901
G1 X109.019 Y126.552 E0.02675
G1 X109.019 Y117.080 E0.31901
G1 X109.813 Y117.080 E0.02675
G1 X109.813 Y126.552 E0.31901
G1 X110.607 Y126.552 E0.02675
G1 X110.607 Y117.080 E0.31901
G1 X111.401 Y117.080 E0.02675
G1 X111.401 Y126.552 E0.31901
G1 X112.195 Y126.552 E0.02675
G1 X112.195 Y117.080 E0.31901
G1 X112.500 Y117.080 E0.01026
G1 X112.500 Y114.790 E0.07712
G1 X112.989 Y114.790 E0.01649
G1 X112.989 Y126.552 E0.39613
G1 X113.783 Y126.552 E0.02675
G1 X113.783 Y114.790 E0.39613
G1 X114.578 Y114.790 E0.02675
G1 X114.578 Y126.552 E0.39613
G1 X115.103 Y126.552 E0.01768
G1 X115.103 Y124.262 E0.07712
G1 X115.372 Y124.262 E0.00907
G1 X115.372 Y112.500 E0.39613
G1 X116.166 Y112.500 E0.02675
G1 X116.166 Y124.441 E0.40215
G1 X102.665 Y124.441 F12000.000
G1 F1200
G1 X102.665 Y95.470 E0.97566
G1 X101.871 Y95.470 E0.02675
G1 X101.871 Y124.262 E0.96964
G1 X101.077 Y124.262 E0.02675
G1 X101.077 Y95.470 E0.96964
G1 X100.283 Y95.470 E0.02675
G1 X100.283 Y124.262 E0.96964
G1 X99.489 Y124.262 E0.02675
G1 X99.489 Y95.470 E0.96964
G1 X98.694 Y95.470 E0.02675
G1 X98.694 Y124.262 E0.96964
G1 X97.900 Y124.262 E0.02675
G1 X97.900 Y95.470 E0.96964
G1 X97.760 Y95.470 E0.00471
G1 X97.760 Y97.760 E0.07712
G1 X97.106 Y97.760 E0.02203
G1 X97.106 Y121.972 E0.81540
G1 X96.312 Y121.972 E0.02675
G1 X96.312 Y97.760 E0.81540
G1 X95.518 Y97.760 E0.02675
G1 X95.518 Y121.972 E0.81540
G1 X95.470 Y121.972 E0.00160
G1 X95.470 Y115.103 E0.23136
G1 X94.724 Y115.103 E0.02515
G1 X94.724 Y104.630 E0.35269
G1 X93.929 Y104.630 E0.02675
G1 X93.929 Y115.281 E0.35871
G1 E-3.00000 F2700.00000
G1 F9600
G1 X93.929 Y108.170 E-1.90000
G1 E-0.10000 F2700.00000
G1 X108.876 Y111.209 F12000.000
G1 E5.00000 F2700.00000
G1 F1200
G1 X108.876 Y108.791 E0.08141
G1 X110.000 Y108.513 E0.03901
G1 X111.124 Y108.791 E0.03901
G1 X111.124 Y111.209 E0.08141
G1 X110.000 Y111.487 E0.03901
G1 X108.934 Y111.223 E0.03699
G1 X108.596 Y111.548 F12000.000
G1 F1200
G1 X108.479 Y111.432 E0.00558
G1 X108.479 Y108.568 E0.09646
G1 X108.596 Y108.452 E0.00558
G1 X110.000 Y108.104 E0.04871
G1 X111.404 Y108.452 E0.04871
G1 X111.521 Y108.568 E0.00558
G1 X111.521 Y111.432 E0.09646
G1 X111.404 Y111.548 E0.00558
G1 X110.000 Y111.896 E0.04871
G1 X108.654 Y111.563 E0.04669
G1 X108.596 Y111.383 F12000.000
G1 X108.995 Y110.227
G1 F1200
G1 X109.931 Y111.164 E0.04894
G1 X110.000 Y111.181 E0.00261
G1 X110.452 Y111.068 E0.01722
G1 X109.173 Y109.789 E0.06682
G1 X109.173 Y109.173 E0.02276
G1 X110.827 Y110.827 E0.08638
G1 X110.827 Y110.211 E0.02276
G1 X109.548 Y108.932 E0.06683
G1 X110.000 Y108.819 E0.01722
G1 X110.068 Y108.836 E0.00260
G1 X111.005 Y109.773 E0.04895
M106 S255
;BEFORE_LAYER_CHANGE
;Layer 1
;0.33mm
;Printing layer 1 at 0.33mm


G1 E-3.00000 F2700.00000
G1 F9600
G1 X110.068 Y108.836 E-0.35401
G1 X110.000 Y108.819 E-0.01884
G1 X109.548 Y108.932 E-0.12454
G1 X110.827 Y110.211 E-0.48331
G1 X110.827 Y110.827 E-0.16460
G1 X109.173 Y109.173 E-0.62470
G1 X109.173 Y109.660 E-0.13001
G1 E-0.10000 F2700.00000
G1 Z0.330 F12000.000
;AFTER_LAYER_CHANGE
;Layer 1
;0.33mm
;Printing layer 1 at 0.33mm


G1 X104.285 Y114.577
G1 E5.00000 F2700.00000
G1 F1446
G1 X104.285 Y105.286 E0.16497
G1 X103.795 Y105.286 E0.00870
G1 X103.795 Y114.446 E0.16265
G1 X103.305 Y114.446 E0.00870
G1 X103.305 Y105.156 E0.16497
G1 E-3.00000 F2700.00000
G1 F9600
G1 X103.305 Y112.267 E-1.90000
G1 E-0.10000 F2700.00000
G1 X114.573 Y102.866 F12000.000
G1 E5.00000 F2700.00000
G1 F1446
G1 X114.573 Y107.677 E0.08542
G1 X114.083 Y107.192 E0.01224
G1 X114.083 Y102.997 E0.07450
G1 X113.593 Y102.997 E0.00870
G1 X113.593 Y106.707 E0.06589
G1 X113.103 Y106.222 E0.01224
G1 X113.103 Y102.997 E0.05728
G1 X112.613 Y102.997 E0.00870
G1 X112.613 Y105.737 E0.04867
G1 X112.123 Y105.252 E0.01224
G1 X112.123 Y102.997 E0.04006
G1 X111.633 Y102.997 E0.00870
G1 X111.633 Y104.972 E0.03508
G1 X111.528 Y104.939 E0.00196
G1 X111.143 Y104.893 E0.00688
G1 X111.143 Y102.997 E0.03367
G1 X110.654 Y102.997 E0.00870
G1 X110.654 Y104.834 E0.03262
G1 X110.164 Y104.774 E0.00876
G1 X110.164 Y102.997 E0.03157
G1 X109.674 Y102.997 E0.00870
G1 X109.674 Y104.794 E0.03192
G1 X109.184 Y104.853 E0.00876
G1 X109.184 Y102.997 E0.03297
G1 X108.694 Y102.997 E0.00870
G1 X108.694 Y104.912 E0.03402
G1 X108.472 Y104.939 E0.00397
G1 X108.204 Y105.050 E0.00515
G1 X108.204 Y102.997 E0.03647
G1 X107.714 Y102.997 E0.00870
G1 X107.714 Y105.413 E0.04291
G1 X107.224 Y105.898 E0.01224
G1 X107.224 Y102.997 E0.05152
G1 X106.734 Y102.997 E0.00870
G1 X106.734 Y106.383 E0.06013
G1 X106.244 Y106.868 E0.01224
G1 X106.244 Y102.997 E0.06874
G1 X105.754 Y102.997 E0.00870
G1 X105.754 Y107.353 E0.07735
G1 X105.265 Y107.838 E0.01224
G1 X105.265 Y105.286 E0.04530
G1 X104.775 Y105.286 E0.00870
G1 X104.775 Y114.446 E0.16265
G1 X105.265 Y114.446 E0.00870
G1 X105.265 Y112.162 E0.04055
G1 X105.754 Y112.647 E0.01224
G1 X105.754 Y116.736 E0.07261
G1 X106.244 Y116.736 E0.00870
