; generated by PrusaSlicer 2.0.0+win64 on 2019-07-07 at 13:22:12

; 

; external perimeters extrusion width = 0.48mm
; perimeters extrusion width = 0.48mm
; infill extrusion width = 0.48mm
; solid infill extrusion width = 0.48mm
; top infill extrusion width = 0.40mm
; first layer extrusion width = 0.48mm

M201 X9000 Y9000 Z500 E10000 ; sets maximum accelerations, mm/sec^2
M203 X500 Y500 Z12 E120 ; sets maximum feedrates, mm/sec
M204 P1500 R1500 T1500 ; sets acceleration (P, T) and retract acceleration (R), mm/sec^2
M205 X10.00 Y10.00 Z0.20 E2.50 ; sets the jerk limits, mm/sec
M205 S0 T0 ; sets the minimum extruding and travel feed rate, mm/sec
M107
M201 X500.00 Y500.00 Z100.00 E5000.00 ;Setup machine max acceleration
M203 X500.00 Y500.00 Z10.00 E50.00 ;Setup machine max feedrate
M204 P500.00 R1000.00 T500.00 ;Setup Print/Retract/Travel acceleration
M205 X8.00 Y8.00 Z0.40 E5.00 ;Setup Jerk
M220 S100 ;Reset Feedrate
M221 S100 ;Reset Flowrate

M117 Heating... ;Put printing message on LCD screen
M104 S210 ; set extruder temp
M140 S60 ; set bed temp
G1 Z20 ; this is a good start heating position
G28 X Y; Home XY
M84 ; disable motors
M190 S60 ; wait for bed temp
M109 S210 ; wait for extruder temp

; Start of print
G21; metric values
G90 ; absolute positioning
M82; set extruder to absolute mode

G28;
M92 E94.55 ;Calibrated Extruder

; Prepare nozzle
G92 E0 ; Set extrusion distance to 0
G92 E0 ; Set extrusion distance to 0
G1 F1800 E3;
G92 E0 ; Set extrusion distance to 0
G90;


; You may want to adjust the X and Y here so the nozzle is really above the bed!
G1 X5.0 Y5.0 F7200 ; Move to a position in the left front of the bed
G1 Z0.6; Move nozzle above 0.6 mm of the bed

G91 ; Use relative mode
; Make some jerky zick-zack move at the beginning
; This is supposed to get rid of residue at the nozzle
G1 X1.0 Y5.0 Z-0.1 E-1.0 F7200 ; X6 Y10 Z0.1, retract a tiny bit / 120mm/s
G1 X1.0 Y-5.0 Z0.1 E2.0 F7200 ; X7 Y5 Z0.2 extrude a tiny bit
G1 X2.0 Y5.0 Z-0.1 F7200 ; X9 Y10 Z0.1
G1 X2.0 Y-5.0 Z0.1 F7200 ; X11 Y5 Z0.2
G1 X2.0 Y5.0 F7200 ; X13 Y10
G1 X2.0 Y-5.0 F7200 ; X15 Y5

; now print a line of filament to prepare extrusion
G1 Y50 E20 F1000 ; prints a line in the front
G1 Y50 E40 F1000 ; prints a line in the front

; Done with the dancing :)
G92 E0 ; Set extrusion distance to 0
G90 ; switch back to absolute mode

M117 Printing... ;Put printing message on LCD screen
; Start of actual GCode for the print
M900 K200; Filament gcode
G21 ; set units to millimeters
G90 ; use absolute coordinates
M83 ; use relative distances for extrusion
;BEFORE_LAYER_CHANGE
;Layer 0
;0.2mm
;Printing layer 0 at 0.2mm


G1 Z0.200 F12000.000
;AFTER_LAYER_CHANGE
;Layer 0
;0.2mm
;Printing layer 0 at 0.2mm


G1 E-5.00000 F2700.00000
G1 X75.554 Y74.622 F12000.000
G1 E5.00000 F2700.00000
M204 S1500
G1 F1200
G1 X78.302 Y71.840 E0.14496
G1 X86.511 Y66.456 E0.36392
G1 X95.350 Y62.894 E0.35327
G1 X105.058 Y61.039 E0.36639
G1 X114.467 Y60.979 E0.34880
G1 X124.358 Y62.819 E0.37295
G1 X133.267 Y66.286 E0.35438
G1 X141.487 Y71.645 E0.36377
G1 X148.200 Y78.286 E0.35003
G1 X153.579 Y86.510 E0.36430
G1 X157.120 Y95.366 E0.35354
G1 X158.961 Y105.087 E0.36676
G1 X159.005 Y114.708 E0.35667
G1 X157.189 Y124.423 E0.36638
G1 X153.736 Y133.332 E0.35417
G1 X148.405 Y141.529 E0.36249
G1 X141.782 Y148.209 E0.34869
G1 X133.572 Y153.546 E0.36301
G1 X124.709 Y157.047 E0.35325
G1 X114.963 Y158.866 E0.36753
G1 X105.315 Y158.917 E0.35767
G1 X95.578 Y157.136 E0.36693
G1 X91.391 Y155.601 E0.16534
G1 X86.634 Y153.742 E0.18930
G1 X78.419 Y148.454 E0.36219
G1 X71.730 Y141.854 E0.34833
G1 X66.399 Y133.637 E0.36310
G1 X62.909 Y124.757 E0.35369
G1 X61.098 Y115.009 E0.36757
G1 X61.066 Y105.374 E0.35717
G1 X62.884 Y95.658 E0.36643
G1 X66.336 Y86.755 E0.35397
G1 X71.678 Y78.546 E0.36305
G1 X75.512 Y74.665 E0.20225
G1 E-3.00000 F2700.00000
G1 F9600
G1 X78.302 Y71.840 E-1.06084
G1 X80.928 Y70.118 E-0.83916
G1 E-0.10000 F2700.00000
G1 X77.630 Y76.778 F12000.000
G1 E5.00000 F2700.00000
G1 F1200
G1 X79.443 Y74.960 E0.09516
G1 X80.518 Y76.028 E0.05616
G1 X81.414 Y75.259 E0.04377
G1 X83.145 Y73.921 E0.08110
G1 X84.966 Y72.663 E0.08206
G1 X86.812 Y71.515 E0.08058
G1 X88.734 Y70.451 E0.08144
G1 X89.811 Y69.923 E0.04445
G1 X89.202 Y68.573 E0.05487
G1 X95.179 Y66.183 E0.23861
G1 X95.779 Y67.522 E0.05438
G1 X96.906 Y67.160 E0.04387
G1 X99.038 Y66.588 E0.08182
G1 X101.218 Y66.116 E0.08269
G1 X103.376 Y65.754 E0.08113
G1 X105.570 Y65.492 E0.08193
G1 X106.766 Y65.407 E0.04443
G1 X106.750 Y63.981 E0.05285
G1 X113.227 Y63.973 E0.24009
G1 X113.214 Y65.401 E0.05295
G1 X114.413 Y65.486 E0.04455
G1 X116.608 Y65.746 E0.08193
G1 X118.810 Y66.114 E0.08277
G1 X120.947 Y66.577 E0.08105
G1 X123.079 Y67.145 E0.08182
G1 X124.207 Y67.507 E0.04390
G1 X124.799 Y66.168 E0.05427
G1 X130.787 Y68.540 E0.23878
G1 X130.178 Y69.898 E0.05517
G1 X131.254 Y70.426 E0.04444
G1 X133.181 Y71.488 E0.08157
G1 X135.065 Y72.656 E0.08217
G1 X136.851 Y73.893 E0.08052
G1 X138.587 Y75.229 E0.08122
G1 X139.485 Y75.997 E0.04381
G1 X140.562 Y74.926 E0.05632
G1 X145.069 Y79.423 E0.23602
G1 X144.001 Y80.506 E0.05639
G1 X144.770 Y81.402 E0.04373
G1 X146.107 Y83.137 E0.08121
G1 X147.368 Y84.958 E0.08211
G1 X148.513 Y86.804 E0.08054
G1 X149.578 Y88.728 E0.08152
G1 X150.106 Y89.805 E0.04447
G1 X151.449 Y89.196 E0.05469
G1 X153.830 Y95.177 E0.23864
G1 X152.500 Y95.771 E0.05399
G1 X152.860 Y96.898 E0.04385
G1 X153.429 Y99.033 E0.08194
G1 X153.900 Y101.216 E0.08275
G1 X154.260 Y103.378 E0.08126
G1 X154.521 Y105.576 E0.08207
G1 X154.604 Y106.773 E0.04446
G1 X156.016 Y106.763 E0.05233
G1 X156.024 Y113.255 E0.24064
G1 X154.611 Y113.241 E0.05240
G1 X154.528 Y114.438 E0.04450
G1 X154.271 Y116.640 E0.08219
G1 X153.905 Y118.847 E0.08290
G1 X153.447 Y120.990 E0.08124
G1 X152.882 Y123.130 E0.08206
G1 X152.523 Y124.260 E0.04393
G1 X153.847 Y124.854 E0.05380
G1 X151.488 Y130.848 E0.23880
G1 X150.146 Y130.244 E0.05456
G1 X149.621 Y131.321 E0.04442
G1 X148.563 Y133.246 E0.08142
G1 X147.399 Y135.127 E0.08202
G1 X146.170 Y136.907 E0.08017
G1 X144.840 Y138.639 E0.08097
G1 X144.073 Y139.536 E0.04373
G1 X145.135 Y140.600 E0.05573
G1 X140.654 Y145.081 E0.23493
G1 X139.583 Y144.029 E0.05564
G1 X138.686 Y144.795 E0.04371
G1 X136.957 Y146.123 E0.08082
G1 X135.140 Y147.377 E0.08185
G1 X133.294 Y148.515 E0.08036
G1 X131.368 Y149.571 E0.08141
G1 X130.289 Y150.094 E0.04445
G1 X130.893 Y151.413 E0.05379
G1 X124.901 Y153.765 E0.23862
G1 X124.309 Y152.465 E0.05295
G1 X123.181 Y152.819 E0.04384
G1 X121.039 Y153.381 E0.08209
G1 X118.849 Y153.844 E0.08299
G1 X116.680 Y154.202 E0.08147
G1 X114.470 Y154.458 E0.08249
G1 X113.272 Y154.543 E0.04453
G1 X113.281 Y155.924 E0.05120
G1 X106.766 Y155.935 E0.24153
G1 X106.775 Y154.551 E0.05132
G1 X105.575 Y154.468 E0.04461
G1 X103.363 Y154.215 E0.08254
G1 X101.148 Y153.857 E0.08316
G1 X98.997 Y153.405 E0.08149
G1 X96.849 Y152.849 E0.08223
G1 X95.720 Y152.498 E0.04384
G1 X95.129 Y153.799 E0.05295
G1 X89.114 Y151.474 E0.23904
G1 X89.719 Y150.151 E0.05394
G1 X88.635 Y149.631 E0.04454
G1 X86.708 Y148.584 E0.08132
G1 X84.822 Y147.428 E0.08199
G1 X83.037 Y146.207 E0.08018
G1 X81.305 Y144.883 E0.08081
G1 X80.412 Y144.119 E0.04359
G1 X79.343 Y145.172 E0.05563
G1 X74.862 Y140.708 E0.23449
G1 X75.922 Y139.637 E0.05585
G1 X75.155 Y138.743 E0.04365
G1 X73.828 Y137.013 E0.08084
G1 X72.580 Y135.196 E0.08172
G1 X71.444 Y133.348 E0.08039
G1 X70.394 Y131.422 E0.08133
G1 X69.871 Y130.341 E0.04451
G1 X68.541 Y130.947 E0.05418
G1 X66.195 Y124.942 E0.23899
G1 X67.508 Y124.344 E0.05348
G1 X67.156 Y123.213 E0.04392
G1 X66.596 Y121.068 E0.08217
G1 X66.131 Y118.876 E0.08308
G1 X65.780 Y116.706 E0.08151
G1 X65.522 Y114.499 E0.08236
G1 X65.441 Y113.297 E0.04464
G1 X64.044 Y113.315 E0.05178
G1 X64.046 Y106.808 E0.24120
G1 X65.445 Y106.812 E0.05186
G1 X65.530 Y105.617 E0.04443
G1 X65.788 Y103.414 E0.08222
G1 X66.154 Y101.204 E0.08305
G1 X66.613 Y99.061 E0.08123
G1 X67.179 Y96.926 E0.08186
G1 X67.538 Y95.800 E0.04384
G1 X66.225 Y95.213 E0.05332
G1 X68.586 Y89.227 E0.23853
G1 X69.922 Y89.831 E0.05435
G1 X70.448 Y88.754 E0.04445
G1 X71.508 Y86.829 E0.08145
G1 X72.676 Y84.948 E0.08210
G1 X73.911 Y83.164 E0.08042
G1 X75.245 Y81.431 E0.08107
G1 X76.013 Y80.534 E0.04378
G1 X74.953 Y79.461 E0.05590
G1 X77.588 Y76.820 E0.13828
G1 E-3.00000 F2700.00000
G1 F9600
G1 X79.443 Y74.960 E-0.70193
G1 X80.518 Y76.028 E-0.40478
G1 X81.414 Y75.259 E-0.31548
G1 X82.829 Y74.165 E-0.47782
G1 E-0.10000 F2700.00000
G1 X75.548 Y79.051 F12000.000
G1 E5.00000 F2700.00000
G1 F1200
G1 X140.884 Y144.387 E3.42893
G1 X141.193 Y144.078 E0.01624
G1 X75.996 Y78.880 E3.42166
G1 X76.305 Y78.570 E0.01624
G1 X141.503 Y143.768 E3.42168
G1 X141.812 Y143.459 E0.01624
G1 X76.614 Y78.261 E3.42170
G1 X76.923 Y77.951 E0.01624
G1 X142.122 Y143.150 E3.42172
G1 X142.431 Y142.840 E0.01624
G1 X77.232 Y77.641 E3.42174
G1 X77.541 Y77.331 E0.01624
G1 X142.740 Y142.531 E3.42176
G1 X143.050 Y142.221 E0.01624
G1 X77.850 Y77.022 E3.42178
G1 X78.159 Y76.712 E0.01624
G1 X143.359 Y141.912 E3.42180
G1 X143.669 Y141.603 E0.01624
G1 X78.468 Y76.402 E3.42182
G1 X78.777 Y76.092 E0.01624
G1 X143.978 Y141.293 E3.42184
G1 X144.287 Y140.984 E0.01624
G1 X79.086 Y75.782 E3.42186
G1 X79.395 Y75.473 E0.01624
G1 X144.736 Y140.814 E3.42918
G1 E-3.00000 F2700.00000
G1 F9600
G1 X139.707 Y135.785 E-1.90000
G1 E-0.10000 F2700.00000
G1 X140.714 Y144.836 F12000.000
G1 E5.00000 F2700.00000
G1 F1200
G1 X76.430 Y80.552 E3.37372
G1 X76.144 Y80.885 E0.01629
G1 X139.192 Y143.932 E3.30881
G1 X138.858 Y144.217 E0.01629
G1 X75.859 Y81.218 E3.30627
G1 X75.573 Y81.552 E0.01629
G1 X138.524 Y144.502 E3.30372
G1 X138.176 Y144.773 E0.01636
G1 X75.300 Y81.897 E3.29982
G1 X75.031 Y82.247 E0.01637
G1 X137.826 Y145.042 E3.29558
G1 X137.476 Y145.311 E0.01638
G1 X74.762 Y82.596 E3.29135
G1 X74.492 Y82.946 E0.01637
G1 X137.126 Y145.580 E3.28711
G1 X136.776 Y145.849 E0.01638
G1 X74.223 Y83.295 E3.28287
G1 X73.967 Y83.658 E0.01648
G1 X136.411 Y146.102 E3.27712
G1 X136.045 Y146.355 E0.01651
G1 X73.714 Y84.024 E3.27119
G1 X73.461 Y84.390 E0.01650
G1 X135.679 Y146.607 E3.26526
G1 X135.312 Y146.860 E0.01651
G1 X73.208 Y84.755 E3.25933
G1 X72.955 Y85.121 E0.01650
G1 X134.946 Y147.112 E3.25336
G1 X134.563 Y147.348 E0.01669
G1 X72.718 Y85.503 E3.24573
G1 X72.481 Y85.884 E0.01668
G1 X134.180 Y147.584 E3.23807
G1 X133.797 Y147.820 E0.01669
G1 X72.244 Y86.266 E3.23042
G1 X72.007 Y86.648 E0.01668
G1 X133.414 Y148.056 E3.22277
G1 X133.027 Y148.288 E0.01674
G1 X71.771 Y87.031 E3.21481
G1 X71.551 Y87.430 E0.01690
G1 X132.628 Y148.507 E3.20537
G1 X132.228 Y148.726 E0.01691
G1 X71.332 Y87.829 E3.19593
G1 X71.112 Y88.228 E0.01690
G1 X131.828 Y148.945 E3.18649
G1 X131.429 Y149.164 E0.01691
G1 X70.892 Y88.627 E3.17705
G1 X70.677 Y89.031 E0.01698
G1 X131.021 Y149.375 E3.16692
G1 X130.604 Y149.577 E0.01719
G1 X70.474 Y89.447 E3.15571
G1 X70.271 Y89.863 E0.01717
G1 X130.187 Y149.779 E3.14450
G1 X129.858 Y149.939 E0.01359
G1 X129.967 Y150.178 E0.00975
G1 X70.029 Y90.239 E3.14565
G1 X68.899 Y89.728 E0.04604
G1 X130.418 Y151.248 E3.22863
G1 X129.974 Y151.422 E0.01772
G1 X68.610 Y90.058 E3.22045
G1 X68.435 Y90.502 E0.01770
G1 X129.530 Y151.596 E3.20631
G1 X129.085 Y151.771 E0.01772
G1 X68.260 Y90.946 E3.19217
G1 X68.085 Y91.390 E0.01770
G1 X128.641 Y151.945 E3.17803
G1 X128.196 Y152.120 E0.01772
G1 X67.910 Y91.833 E3.16390
G1 X67.735 Y92.277 E0.01770
G1 X127.752 Y152.294 E3.14976
G1 X127.308 Y152.468 E0.01772
G1 X67.560 Y92.721 E3.13562
G1 X67.385 Y93.165 E0.01770
G1 X126.863 Y152.643 E3.12148
G1 X126.419 Y152.817 E0.01772
G1 X67.210 Y93.609 E3.10735
G1 X67.035 Y94.052 E0.01770
G1 X125.974 Y152.991 E3.09321
G1 X125.530 Y153.166 E0.01772
G1 X66.860 Y94.496 E3.07907
G1 X66.685 Y94.940 E0.01770
G1 X66.901 Y95.156 E0.01134
G1 X67.801 Y96.055 F12000.000
G1 F1200
G1 X123.972 Y152.227 E2.94796
G1 X123.502 Y152.375 E0.01831
G1 X67.651 Y96.525 E2.93111
G1 X67.501 Y96.994 E0.01827
G1 X123.028 Y152.521 E2.91413
G1 X122.538 Y152.649 E0.01881
G1 X67.371 Y97.482 E2.89527
G1 X67.241 Y97.971 E0.01878
G1 X122.048 Y152.778 E2.87635
G1 X121.558 Y152.906 E0.01881
G1 X67.111 Y98.460 E2.85743
G1 X66.981 Y98.949 E0.01878
G1 X121.068 Y153.035 E2.83852
G1 X120.561 Y153.147 E0.01925
G1 X66.864 Y99.451 E2.81808
G1 X66.755 Y99.960 E0.01934
G1 X120.050 Y153.255 E2.79699
G1 X119.539 Y153.363 E0.01938
G1 X66.646 Y100.470 E2.77590
G1 X66.537 Y100.980 E0.01934
G1 X119.029 Y153.471 E2.75481
G1 X118.507 Y153.568 E0.01969
G1 X66.438 Y101.499 E2.73267
G1 X66.350 Y102.030 E0.01997
G1 X117.976 Y153.656 E2.70940
G1 X117.445 Y153.743 E0.01998
G1 X66.262 Y102.561 E2.68614
G1 X66.174 Y103.092 E0.01997
G1 X116.913 Y153.831 E2.66288
G1 X116.371 Y153.908 E0.02032
G1 X66.093 Y103.629 E2.63866
G1 X66.028 Y104.183 E0.02069
G1 X115.817 Y153.972 E2.61298
G1 X115.262 Y154.036 E0.02071
G1 X65.963 Y104.737 E2.58729
G1 X65.898 Y105.291 E0.02069
G1 X114.708 Y154.101 E2.56160
G1 X114.141 Y154.153 E0.02111
G1 X65.842 Y105.853 E2.53483
G1 X65.801 Y106.431 E0.02149
G1 X113.563 Y154.194 E2.50666
G1 X112.986 Y154.235 E0.02150
G1 X65.759 Y107.009 E2.47849
G1 X65.750 Y107.141 E0.00493
G1 X65.272 Y107.140 E0.01775
G1 X112.946 Y154.814 E2.50199
G1 X112.950 Y155.437 E0.02312
G1 X64.651 Y107.138 E2.53479
G1 X64.374 Y107.137 E0.01030
G1 X64.373 Y107.479 E0.01269
G1 X112.492 Y155.598 E2.52534
G1 X111.875 Y155.599 E0.02293
G1 X64.373 Y108.098 E2.49293
G1 X64.373 Y108.716 E0.02296
G1 X111.257 Y155.600 E2.46051
G1 X110.639 Y155.601 E0.02293
G1 X64.373 Y109.335 E2.42810
G1 X64.373 Y109.954 E0.02296
G1 X110.021 Y155.602 E2.39568
G1 X109.403 Y155.603 E0.02293
G1 X64.373 Y110.572 E2.36327
G1 X64.373 Y111.191 E0.02296
G1 X108.786 Y155.604 E2.33085
G1 X108.168 Y155.605 E0.02293
G1 X64.372 Y111.810 E2.29844
G1 X64.372 Y112.428 E0.02296
G1 X65.114 Y113.170 E0.03895
G1 E-3.00000 F2700.00000
G1 F9600
G1 X64.372 Y112.428 E-0.28043
G1 X64.372 Y111.810 E-0.16529
G1 X68.221 Y115.658 E-1.45427
G1 E-0.10000 F2700.00000
G1 X64.799 Y112.544 F12000.000
G1 X66.139 Y111.193
G1 X67.753 Y110.053
G1 X109.907 Y110.079
G1 X108.205 Y111.776
G1 X70.678 Y126.509
G1 X69.654 Y128.155
G1 X68.955 Y129.926
G1 X68.299 Y129.968
G1 E5.00000 F2700.00000
G1 F1200
G1 X68.800 Y130.469 E0.02628
G1 X69.225 Y130.275 E0.01733
G1 X68.249 Y129.299 E0.05121
G1 X67.852 Y128.284 E0.04045
G1 X69.798 Y130.230 E0.10213
G1 X70.117 Y130.548 F12000.000
G1 F1200
G1 X89.440 Y149.872 E1.01413
G1 X89.430 Y151.099 F12000.000
G1 F1200
G1 X89.667 Y151.336 E0.01247
G1 X90.676 Y151.726 E0.04013
G1 X89.772 Y150.823 E0.04743
G1 X89.966 Y150.398 E0.01733
G1 X91.685 Y152.116 E0.09018
G1 X92.693 Y152.506 E0.04013
G1 X67.456 Y127.269 E1.32449
G1 X67.059 Y126.253 E0.04045
G1 X93.702 Y152.896 E1.39824
G1 X94.710 Y153.286 E0.04013
G1 X66.663 Y125.238 E1.47199
G1 X66.613 Y125.112 E0.00501
G1 X66.986 Y124.942 E0.01519
G1 X95.104 Y153.061 E1.47569
G1 X95.298 Y152.635 E0.01734
G1 X67.411 Y124.749 E1.46353
G1 X67.836 Y124.555 E0.01734
G1 X95.491 Y152.210 E1.45136
G1 X95.541 Y152.100 E0.00449
G1 X96.206 Y152.306 E0.02583
G1 X67.674 Y123.774 E1.49740
G1 X67.411 Y122.892 E0.03415
G1 X97.092 Y152.573 E1.55770
G1 X97.927 Y152.789 E0.03201
G1 X67.192 Y122.055 E1.61300
G1 X66.973 Y121.217 E0.03212
G1 X98.762 Y153.006 E1.66831
G1 X99.565 Y153.190 E0.03056
G1 X66.793 Y120.418 E1.71990
G1 X66.627 Y119.633 E0.02978
G1 X100.348 Y153.354 E1.76974
G1 X101.132 Y153.519 E0.02971
G1 X66.461 Y118.848 E1.81959
G1 X66.339 Y118.107 E0.02785
G1 X101.874 Y153.643 E1.86494
G1 X102.612 Y153.762 E0.02775
G1 X66.219 Y117.369 E1.90996
G1 X66.101 Y116.632 E0.02770
G1 X103.350 Y153.881 E1.95490
G1 X104.052 Y153.964 E0.02621
G1 X66.019 Y115.931 E1.99600
G1 X65.937 Y115.231 E0.02617
G1 X104.750 Y154.044 E2.03695
G1 X105.449 Y154.123 E0.02609
G1 X65.856 Y114.530 E2.07789
G1 X65.808 Y113.863 E0.02481
G1 X106.333 Y154.389 E2.12681
G1 X106.904 Y154.959 F12000.000
G1 F1200
G1 X107.746 Y155.802 E0.04424
G1 E-3.00000 F2700.00000
G1 F9600
G1 X106.904 Y154.959 E-0.31850
G1 E-1.68150 F2700.00000
G1 X107.530 Y155.168 F12000.000
G1 X108.852 Y153.863
G1 X110.027 Y152.184
G1 X110.019 Y109.975
G1 X111.512 Y111.455
G1 X126.458 Y149.247
G1 X126.045 Y150.934
G1 X125.293 Y152.791
