; generated by SuperSlicer 2.2.53 on 2020-09-22 at 20:41:33 UTC

; 

; external perimeters extrusion width = 0.42mm
; perimeters extrusion width = 0.44mm
; infill extrusion width = 0.44mm
; solid infill extrusion width = 0.44mm
; top infill extrusion width = 0.44mm
; first layer extrusion width = 0.56mm

; object:{"name":"ALL_BLT_X+48_Y-2_RIGHT_8","id":"ALL_BLT_X+48_Y-2_RIGHT_8.8...stl id:0 copy 0","object_center":[116.000000,116.000000,0.000000],"boundingbox_center":[116.000000,116.000000,17.877169],"boundingbox_size":[36.582945,22.241731,35.754337]}

START_PRINT BED_TEMP=50 EXTRUDER_TEMP=210
G21 ; set units to millimeters
G90 ; use absolute coordinates
M83 ; use relative distances for extrusion
; Filament gcode
;BEFORE_LAYER_CHANGE
;0.24


G1 E-6.00000 F1500.00000
G1 Z0.240000 F10800.000
;AFTER_LAYER_CHANGE
;0.24
; printing object ALL_BLT_X+48_Y-2_RIGHT_8.8...stl id:0 copy 0
G1 X110.817 Y119.376
G1 E6.00000 F1500.00000
M204 S500
G1 X110.399 Y119.769 E0.02912
G1 X110.096 Y120.230 E0.02795
G1 X109.974 Y120.514 E0.01573
G1 X109.885 Y120.811 E0.01573
G1 X109.821 Y121.358 E0.02795
G1 X109.887 Y121.929 E0.02912
G1 X110.084 Y122.468 E0.02912
G1 X110.386 Y122.928 E0.02795
G1 X110.615 Y123.171 E0.01690
G1 X111.057 Y123.499 E0.02795
G1 X111.584 Y123.727 E0.02912
G1 X112.126 Y123.822 E0.02795
G1 X112.436 Y123.822 E0.01573
G1 X112.744 Y123.786 E0.01573
G1 X113.272 Y123.628 E0.02795
G1 X113.749 Y123.353 E0.02795
G1 X114.004 Y123.139 E0.01690
G1 X114.358 Y122.717 E0.02795
G1 X114.616 Y122.204 E0.02912
G1 X114.743 Y121.668 E0.02795
G1 X114.761 Y121.358 E0.01573
G1 X114.743 Y121.049 E0.01573
G1 X114.616 Y120.513 E0.02795
G1 X114.358 Y120.000 E0.02912
G1 X114.004 Y119.578 E0.02795
G1 X113.749 Y119.364 E0.01690
G1 X113.272 Y119.089 E0.02795
G1 X112.722 Y118.924 E0.02912
G1 X112.149 Y118.891 E0.02912
G1 X111.607 Y118.986 E0.02795
G1 X111.294 Y119.100 E0.01690
G1 X110.869 Y119.346 E0.02490
G1 X111.123 Y119.786 F10800.000
G1 F1500.000
G1 X110.791 Y120.098 E0.02312
G1 X110.546 Y120.472 E0.02267
G1 X110.452 Y120.689 E0.01197
G1 X110.385 Y120.915 E0.01197
G1 X110.333 Y121.358 E0.02267
G1 X110.386 Y121.811 E0.02309
G1 X110.541 Y122.238 E0.02309
G1 X110.787 Y122.612 E0.02267
G1 X110.954 Y122.789 E0.01239
G1 X111.313 Y123.056 E0.02268
G1 X111.731 Y123.236 E0.02309
G1 X112.171 Y123.314 E0.02267
G1 X112.407 Y123.314 E0.01197
G1 X112.641 Y123.287 E0.01197
G1 X113.069 Y123.158 E0.02267
G1 X113.456 Y122.935 E0.02267
G1 X113.643 Y122.778 E0.01239
G1 X113.931 Y122.436 E0.02267
G1 X114.135 Y122.029 E0.02309
G1 X114.238 Y121.594 E0.02267
G1 X114.252 Y121.358 E0.01197
G1 X114.238 Y121.123 E0.01197
G1 X114.135 Y120.688 E0.02267
G1 X113.931 Y120.281 E0.02309
G1 X113.643 Y119.939 E0.02267
G1 X113.456 Y119.782 E0.01239
G1 X113.069 Y119.559 E0.02267
G1 X112.633 Y119.428 E0.02309
G1 X112.179 Y119.402 E0.02309
G1 X111.739 Y119.479 E0.02267
G1 X111.509 Y119.563 E0.01239
G1 X111.175 Y119.756 E0.01960
G1 X110.750 Y119.642 F10800.000
G1 E-4.20000 F1500.00000
G1 F8640.000
G1 X110.791 Y120.098 E-0.08482
G1 X110.546 Y120.472 E-0.07371
G1 X110.452 Y120.689 E-0.03892
G1 X110.385 Y120.915 E-0.03892
G1 X110.333 Y121.358 E-0.07371
G1 X110.386 Y121.811 E-0.07506
G1 X110.541 Y122.238 E-0.07507
G1 X110.787 Y122.612 E-0.07371
G1 X110.954 Y122.789 E-0.04027
G1 X111.313 Y123.056 E-0.07371
G1 X111.731 Y123.236 E-0.07506
G1 X112.171 Y123.314 E-0.07371
G1 X112.407 Y123.314 E-0.03892
G1 X112.641 Y123.287 E-0.03892
G1 X113.069 Y123.158 E-0.07371
G1 X113.456 Y122.935 E-0.07371
G1 X113.643 Y122.778 E-0.04027
G1 X113.931 Y122.436 E-0.07371
G1 X114.135 Y122.029 E-0.07507
G1 X114.238 Y121.594 E-0.07371
G1 X114.252 Y121.358 E-0.03892
G1 X114.238 Y121.123 E-0.03892
G1 X114.135 Y120.688 E-0.07371
G1 X113.931 Y120.281 E-0.07507
G1 X113.643 Y119.939 E-0.07371
G1 X113.456 Y119.782 E-0.04027
G1 X113.069 Y119.559 E-0.07371
G1 X113.005 Y119.539 E-0.01104
G1 E-0.09000 F1500.00000
G1 X118.254 Y121.358 F10800.000
G1 E6.00000 F1500.00000
G1 X118.331 Y122.020 E0.03384
G1 X118.454 Y122.431 E0.02173
G1 X118.754 Y123.027 E0.03384
G1 X119.182 Y123.538 E0.03384
G1 X119.510 Y123.813 E0.02173
G1 X120.088 Y124.146 E0.03384
G1 X120.764 Y124.349 E0.03578
G1 X121.429 Y124.387 E0.03384
G1 X121.855 Y124.338 E0.02173
G1 X122.494 Y124.146 E0.03384
G1 X123.104 Y123.794 E0.03578
G1 X123.617 Y123.310 E0.03578
G1 X124.005 Y122.721 E0.03578
G1 X124.233 Y122.094 E0.03384
G1 X124.307 Y121.672 E0.02173
G1 X124.307 Y121.043 E0.03191
G1 X124.233 Y120.622 E0.02173
G1 X124.005 Y119.995 E0.03384
G1 X123.617 Y119.406 E0.03578
G1 X123.104 Y118.922 E0.03578
G1 X122.527 Y118.588 E0.03384
G1 X122.124 Y118.442 E0.02173
G1 X121.505 Y118.333 E0.03191
G1 X121.115 Y118.333 E0.01980
G1 X120.727 Y118.378 E0.01980
G1 X120.088 Y118.569 E0.03384
G1 X119.510 Y118.903 E0.03384
G1 X119.182 Y119.178 E0.02173
G1 X118.754 Y119.689 E0.03384
G1 X118.454 Y120.285 E0.03384
G1 X118.331 Y120.695 E0.02173
G1 X118.261 Y121.298 E0.03080
G1 X118.766 Y121.357 F10800.000
G1 F1500.000
G1 X118.831 Y121.917 E0.02860
G1 X118.929 Y122.242 E0.01721
G1 X119.181 Y122.745 E0.02857
G1 X119.543 Y123.177 E0.02857
G1 X119.803 Y123.395 E0.01721
G1 X120.291 Y123.676 E0.02857
G1 X120.852 Y123.844 E0.02975
G1 X121.415 Y123.877 E0.02857
G1 X121.752 Y123.838 E0.01721
G1 X122.291 Y123.676 E0.02857
G1 X122.799 Y123.383 E0.02975
G1 X123.225 Y122.981 E0.02974
G1 X123.547 Y122.491 E0.02975
G1 X123.740 Y121.962 E0.02857
G1 X123.799 Y121.628 E0.01721
G1 X123.799 Y121.088 E0.02739
G1 X123.740 Y120.754 E0.01721
G1 X123.547 Y120.225 E0.02857
G1 X123.225 Y119.735 E0.02974
G1 X122.799 Y119.333 E0.02974
G1 X122.311 Y119.051 E0.02857
G1 X121.992 Y118.935 E0.01721
G1 X121.460 Y118.841 E0.02739
G1 X121.144 Y118.841 E0.01604
G1 X120.830 Y118.878 E0.01604
G1 X120.291 Y119.039 E0.02857
G1 X119.803 Y119.321 E0.02857
G1 X119.543 Y119.539 E0.01721
G1 X119.181 Y119.970 E0.02857
G1 X118.929 Y120.474 E0.02857
G1 X118.831 Y120.799 E0.01721
G1 X118.773 Y121.298 E0.02550
G1 X119.278 Y121.357 F10800.000
G1 F1500.000
G1 X119.331 Y121.814 E0.02335
G1 X119.403 Y122.054 E0.01270
G1 X119.609 Y122.464 E0.02330
G1 X119.904 Y122.816 E0.02330
G1 X120.096 Y122.977 E0.01270
G1 X120.494 Y123.206 E0.02330
G1 X120.941 Y123.340 E0.02371
G1 X121.400 Y123.367 E0.02330
G1 X121.648 Y123.338 E0.01270
G1 X122.088 Y123.206 E0.02330
G1 X122.493 Y122.973 E0.02371
G1 X122.833 Y122.652 E0.02371
G1 X123.090 Y122.261 E0.02371
G1 X123.247 Y121.830 E0.02330
G1 X123.290 Y121.583 E0.01270
G1 X123.290 Y121.132 E0.02288
G1 X123.247 Y120.886 E0.01270
G1 X123.090 Y120.454 E0.02330
G1 X122.833 Y120.064 E0.02371
G1 X122.493 Y119.743 E0.02371
G1 X122.095 Y119.514 E0.02330
G1 X121.860 Y119.428 E0.01270
G1 X121.416 Y119.350 E0.02288
G1 X121.174 Y119.350 E0.01228
G1 X120.933 Y119.378 E0.01228
G1 X120.494 Y119.510 E0.02330
G1 X120.096 Y119.739 E0.02330
G1 X119.904 Y119.900 E0.01270
G1 X119.609 Y120.252 E0.02330
G1 X119.403 Y120.662 E0.02330
G1 X119.331 Y120.902 E0.01270
G1 X119.285 Y121.297 E0.02019
G1 X118.940 Y121.570 F10800.000
G1 E-4.20000 F1500.00000
G1 F8640.000
G1 X119.331 Y121.814 E-0.08557
G1 X119.403 Y122.054 E-0.04128
G1 X119.609 Y122.464 E-0.07573
G1 X119.904 Y122.816 E-0.07573
G1 X120.096 Y122.977 E-0.04128
G1 X120.494 Y123.206 E-0.07573
G1 X120.941 Y123.340 E-0.07709
G1 X121.400 Y123.367 E-0.07573
G1 X121.648 Y123.338 E-0.04128
G1 X122.088 Y123.206 E-0.07573
G1 X122.493 Y122.973 E-0.07709
G1 X122.833 Y122.652 E-0.07708
G1 X123.090 Y122.261 E-0.07709
G1 X123.247 Y121.830 E-0.07573
G1 X123.290 Y121.583 E-0.04128
G1 X123.290 Y121.132 E-0.07437
G1 X123.247 Y120.886 E-0.04128
G1 X123.090 Y120.454 E-0.07573
G1 X122.833 Y120.064 E-0.07709
G1 X122.493 Y119.743 E-0.07709
G1 X122.095 Y119.514 E-0.07573
G1 X121.860 Y119.428 E-0.04128
G1 X121.416 Y119.350 E-0.07437
G1 X121.174 Y119.350 E-0.03993
G1 X120.933 Y119.378 E-0.03993
G1 X120.494 Y119.510 E-0.07573
G1 X120.472 Y119.522 E-0.00407
G1 E-0.09000 F1500.00000
G1 X100.676 Y108.406 F10800.000
G1 E6.00000 F1500.00000
G1 F1800.000
G1 X99.747 Y106.226 E0.12022
G1 X101.762 Y106.226 E0.10223
G1 X101.762 Y108.559 E0.11838
G1 X101.812 Y109.179 E0.03154
G1 X101.900 Y109.603 E0.02200
G1 X102.125 Y110.257 E0.03504
G1 X102.446 Y110.852 E0.03432
G1 X102.693 Y111.199 E0.02162
G1 X103.158 Y111.704 E0.03482
G1 X103.704 Y112.130 E0.03515
G1 X104.069 Y112.347 E0.02152
G1 X104.672 Y112.611 E0.03343
G1 X105.066 Y112.728 E0.02082
G1 X105.737 Y112.841 E0.03453
G1 X107.976 Y112.864 E0.11363
G1 X108.459 Y112.892 E0.02455
G1 X109.471 Y113.014 E0.05170
G1 X110.457 Y113.212 E0.05105
G1 X111.425 Y113.489 E0.05105
G1 X112.379 Y113.846 E0.05170
G1 X112.815 Y114.039 E0.02422
G1 X113.720 Y114.507 E0.05170
G1 X114.579 Y115.042 E0.05132
G1 X117.169 Y116.940 E0.16290
G1 X125.084 Y116.940 E0.40162
G1 X129.568 Y118.348 E0.23847
G1 X128.507 Y118.961 E0.06215
G1 X128.031 Y119.411 E0.03325
G1 X127.778 Y119.750 E0.02143
G1 X127.501 Y120.301 E0.03132
G1 X127.380 Y120.706 E0.02143
G1 X127.304 Y121.357 E0.03325
G1 X127.385 Y122.046 E0.03519
G1 X127.609 Y122.662 E0.03326
G1 X127.820 Y123.027 E0.02143
G1 X128.217 Y123.500 E0.03132
G1 X128.540 Y123.772 E0.02143
G1 X129.568 Y124.365 E0.06022
G1 X125.084 Y125.774 E0.23847
G1 X117.497 Y125.774 E0.38495
G1 X113.011 Y124.366 E0.23856
G1 X114.042 Y123.771 E0.06040
G1 X114.365 Y123.500 E0.02142
G1 X114.786 Y122.998 E0.03322
G1 X115.097 Y122.379 E0.03516
G1 X115.248 Y121.742 E0.03322
G1 X115.270 Y121.358 E0.01949
G1 X115.248 Y120.975 E0.01949
G1 X115.097 Y120.338 E0.03322
G1 X114.786 Y119.719 E0.03515
G1 X114.365 Y119.217 E0.03322
G1 X114.042 Y118.946 E0.02142
G1 X113.475 Y118.618 E0.03322
G1 X112.811 Y118.420 E0.03515
G1 X112.119 Y118.379 E0.03516
G1 X111.475 Y118.493 E0.03322
G1 X111.078 Y118.637 E0.02142
G1 X110.511 Y118.965 E0.03322
G1 X110.007 Y119.440 E0.03515
G1 X109.647 Y119.987 E0.03322
G1 X109.375 Y120.617 E0.03480
G1 X108.979 Y119.620 E0.05445
G1 X108.458 Y118.503 E0.06255
G1 X107.846 Y117.418 E0.06318
G1 X107.152 Y116.385 E0.06318
G1 X106.380 Y115.407 E0.06318
G1 X105.534 Y114.493 E0.06318
G1 X104.621 Y113.647 E0.06318
G1 X103.645 Y112.873 E0.06318
G1 X102.612 Y112.178 E0.06318
G1 X101.543 Y111.573 E0.06233
G1 X100.692 Y111.147 E0.04829
G1 X100.313 Y110.983 E0.02095
G1 X99.666 Y110.775 E0.03448
G1 X100.652 Y108.461 E0.12760
G1 E-4.20000 F1500.00000
G1 F8640.000
G1 X99.747 Y106.226 E-0.39770
G1 X101.762 Y106.226 E-0.33231
G1 X101.762 Y108.559 E-0.38480
G1 X101.812 Y109.179 E-0.10254
G1 X101.900 Y109.603 E-0.07151
G1 X102.125 Y110.257 E-0.11392
G1 X102.446 Y110.852 E-0.11155
G1 X102.693 Y111.199 E-0.07029
G1 X103.158 Y111.704 E-0.11320
G1 X103.216 Y111.749 E-0.01217
G1 E-0.09000 F1500.00000
G1 X127.816 Y121.357 F10800.000
G1 E6.00000 F1500.00000
G1 X127.883 Y121.928 E0.02916
G1 X128.071 Y122.446 E0.02798
G1 X128.238 Y122.735 E0.01692
G1 X128.578 Y123.139 E0.02681
G1 X128.833 Y123.354 E0.01692
G1 X129.311 Y123.629 E0.02798
G1 X129.861 Y123.794 E0.02916
G1 X130.412 Y123.826 E0.02798
G1 X130.743 Y123.788 E0.01692
G1 X131.249 Y123.636 E0.02681
G1 X131.547 Y123.486 E0.01692
G1 X131.989 Y123.157 E0.02798
G1 X132.359 Y122.717 E0.02916
G1 X132.617 Y122.203 E0.02916
G1 X132.744 Y121.667 E0.02798
G1 X132.762 Y121.357 E0.01575
G1 X132.744 Y121.047 E0.01575
G1 X132.617 Y120.510 E0.02798
G1 X132.359 Y119.997 E0.02916
G1 X131.989 Y119.557 E0.02916
G1 X131.547 Y119.227 E0.02798
G1 X131.249 Y119.078 E0.01692
G1 X130.721 Y118.919 E0.02798
G1 X130.170 Y118.887 E0.02798
G1 X129.839 Y118.926 E0.01692
G1 X129.311 Y119.084 E0.02798
G1 X128.813 Y119.372 E0.02916
G1 X128.412 Y119.750 E0.02798
G1 X128.213 Y120.017 E0.01692
G1 X127.976 Y120.490 E0.02680
G1 X127.880 Y120.809 E0.01692
G1 X127.823 Y121.297 E0.02494
G1 X128.328 Y121.356 F10800.000
G1 F1500.000
G1 X128.381 Y121.810 E0.02315
G1 X128.534 Y122.230 E0.02271
G1 X128.656 Y122.442 E0.01240
G1 X128.939 Y122.778 E0.02229
G1 X129.126 Y122.936 E0.01240
G1 X129.513 Y123.159 E0.02271
G1 X129.950 Y123.290 E0.02313
G1 X130.397 Y123.316 E0.02271
G1 X130.640 Y123.288 E0.01240
G1 X131.061 Y123.162 E0.02229
G1 X131.279 Y123.052 E0.01241
G1 X131.638 Y122.785 E0.02271
G1 X131.931 Y122.436 E0.02313
G1 X132.136 Y122.028 E0.02313
G1 X132.239 Y121.593 E0.02271
G1 X132.253 Y121.357 E0.01199
G1 X132.239 Y121.121 E0.01199
G1 X132.136 Y120.685 E0.02271
G1 X131.931 Y120.278 E0.02313
G1 X131.638 Y119.929 E0.02313
G1 X131.279 Y119.662 E0.02271
G1 X131.061 Y119.552 E0.01240
G1 X130.632 Y119.424 E0.02271
G1 X130.185 Y119.398 E0.02271
G1 X129.942 Y119.426 E0.01241
G1 X129.513 Y119.554 E0.02271
G1 X129.119 Y119.782 E0.02313
G1 X128.793 Y120.089 E0.02271
G1 X128.647 Y120.285 E0.01241
G1 X128.450 Y120.678 E0.02229
G1 X128.380 Y120.912 E0.01240
G1 X128.335 Y121.297 E0.01964
G1 X127.990 Y121.569 F10800.000
G1 E-4.20000 F1500.00000
G1 F8640.000
G1 X128.381 Y121.810 E-0.08492
G1 X128.534 Y122.230 E-0.07382
G1 X128.656 Y122.442 E-0.04032
G1 X128.939 Y122.778 E-0.07246
G1 X129.126 Y122.936 E-0.04032
G1 X129.513 Y123.159 E-0.07382
G1 X129.950 Y123.290 E-0.07517
G1 X130.397 Y123.316 E-0.07382
G1 X130.640 Y123.288 E-0.04032
G1 X131.061 Y123.162 E-0.07246
G1 X131.279 Y123.052 E-0.04032
G1 X131.638 Y122.785 E-0.07382
G1 X131.931 Y122.436 E-0.07517
G1 X132.136 Y122.028 E-0.07517
G1 X132.239 Y121.593 E-0.07382
G1 X132.253 Y121.357 E-0.03897
G1 X132.239 Y121.121 E-0.03897
G1 X132.136 Y120.685 E-0.07382
G1 X131.931 Y120.278 E-0.07517
G1 X131.638 Y119.929 E-0.07517
G1 X131.279 Y119.662 E-0.07382
G1 X131.061 Y119.552 E-0.04032
G1 X130.632 Y119.424 E-0.07382
G1 X130.185 Y119.398 E-0.07382
G1 X129.942 Y119.426 E-0.04032
G1 X129.513 Y119.554 E-0.07382
G1 X129.271 Y119.694 E-0.04624
G1 E-0.09000 F1500.00000
G1 X100.123 Y108.406 F10800.000
G1 E6.00000 F1500.00000
G1 F1800.000
G1 X98.977 Y105.718 E0.14826
G1 X102.270 Y105.718 E0.16707
G1 X102.270 Y108.539 E0.14313
G1 X102.316 Y109.106 E0.02891
G1 X102.391 Y109.469 E0.01876
G1 X102.592 Y110.051 E0.03128
G1 X102.879 Y110.582 E0.03062
G1 X103.089 Y110.878 E0.01841
G1 X103.504 Y111.329 E0.03107
G1 X103.992 Y111.710 E0.03139
G1 X104.301 Y111.894 E0.01829
G1 X104.847 Y112.133 E0.03024
G1 X105.181 Y112.232 E0.01764
G1 X105.782 Y112.333 E0.03092
G1 X107.994 Y112.355 E0.11225
G1 X108.505 Y112.386 E0.02596
G1 X109.552 Y112.511 E0.05350
G1 X110.578 Y112.718 E0.05310
G1 X111.584 Y113.005 E0.05310
G1 X112.571 Y113.375 E0.05350
G1 X113.036 Y113.581 E0.02576
G1 X113.972 Y114.065 E0.05349
G1 X114.864 Y114.621 E0.05332
G1 X117.335 Y116.431 E0.15543
G1 X125.162 Y116.431 E0.39714
G1 X131.210 Y118.331 E0.32162
G1 X131.675 Y118.516 E0.02539
G1 X132.081 Y118.753 E0.02387
G1 X132.459 Y119.057 E0.02461
G1 X132.615 Y119.213 E0.01120
G1 X132.758 Y119.381 E0.01120
G1 X133.031 Y119.783 E0.02461
G1 X133.234 Y120.207 E0.02387
G1 X133.376 Y120.670 E0.02461
G1 X133.415 Y120.873 E0.01046
G1 X133.451 Y121.357 E0.02461
G1 X133.415 Y121.840 E0.02461
G1 X133.376 Y122.043 E0.01046
G1 X133.230 Y122.521 E0.02536
G1 X133.148 Y122.710 E0.01045
G1 X132.906 Y123.131 E0.02461
G1 X132.614 Y123.499 E0.02387
G1 X132.259 Y123.830 E0.02461
G1 X132.094 Y123.953 E0.01045
G1 X131.675 Y124.197 E0.02461
G1 X131.210 Y124.382 E0.02539
G1 X125.162 Y126.282 E0.32163
G1 X117.419 Y126.282 E0.39286
G1 X111.374 Y124.386 E0.32146
G1 X110.919 Y124.206 E0.02483
G1 X110.520 Y123.976 E0.02335
G1 X110.159 Y123.691 E0.02335
G1 X109.843 Y123.357 E0.02335
G1 X109.579 Y122.980 E0.02334
G1 X109.368 Y122.561 E0.02381
G1 X109.295 Y122.367 E0.01052
G1 X109.177 Y121.898 E0.02452
G1 X109.132 Y121.575 E0.01654
G1 X108.741 Y120.398 E0.06294
G1 X108.512 Y119.822 E0.03147
G1 X108.005 Y118.736 E0.06080
G1 X107.413 Y117.685 E0.06118
G1 X106.740 Y116.684 E0.06118
G1 X105.993 Y115.738 E0.06118
G1 X105.174 Y114.853 E0.06118
G1 X104.290 Y114.033 E0.06118
G1 X103.345 Y113.284 E0.06118
G1 X102.344 Y112.611 E0.06118
G1 X101.304 Y112.022 E0.06066
G1 X100.477 Y111.608 E0.04692
G1 X100.134 Y111.459 E0.01898
G1 X99.457 Y111.242 E0.03605
G1 X98.953 Y111.150 E0.02599
G1 X100.099 Y108.461 E0.14832
G1 X99.570 Y108.406 F10800.000
G1 F1800.000
G1 X98.208 Y105.209 E0.17631
G1 X102.779 Y105.209 E0.23191
G1 X102.779 Y108.518 E0.16788
G1 X102.821 Y109.034 E0.02627
G1 X102.883 Y109.334 E0.01553
G1 X103.059 Y109.846 E0.02752
