; generated by PrusaSlicer 2.0.0+win64 on 2019-07-07 at 11:21:19

; 

; external perimeters extrusion width = 0.40mm
; perimeters extrusion width = 0.40mm
; infill extrusion width = 0.40mm
; solid infill extrusion width = 0.40mm
; top infill extrusion width = 0.40mm
; first layer extrusion width = 0.40mm

M201 X9000 Y9000 Z500 E10000 ; sets maximum accelerations, mm/sec^2
M203 X500 Y500 Z12 E120 ; sets maximum feedrates, mm/sec
M204 P1500 R1500 T1500 ; sets acceleration (P, T) and retract acceleration (R), mm/sec^2
M205 X10.00 Y10.00 Z0.20 E2.50 ; sets the jerk limits, mm/sec
M205 S0 T0 ; sets the minimum extruding and travel feed rate, mm/sec
M107
M201 X500.00 Y500.00 Z100.00 E5000.00 ;Setup machine max acceleration
M203 X500.00 Y500.00 Z10.00 E50.00 ;Setup machine max feedrate
M204 P500.00 R1000.00 T500.00 ;Setup Print/Retract/Travel acceleration
M205 X8.00 Y8.00 Z0.40 E5.00 ;Setup Jerk
M220 S100 ;Reset Feedrate
M221 S100 ;Reset Flowrate

M117 Heating... ;Put printing message on LCD screen
M104 S210 ; set extruder temp
M140 S60 ; set bed temp
G1 Z20 ; this is a good start heating position
G28 X Y; Home XY
M84 ; disable motors
M190 S60 ; wait for bed temp
M109 S210 ; wait for extruder temp

; Start of print
G21; metric values
G90 ; absolute positioning
M82; set extruder to absolute mode

G28;
G29;
M92 E94.55 ;Calibrated Extruder

; Prepare nozzle
G92 E0 ; Set extrusion distance to 0
G92 E0 ; Set extrusion distance to 0
G1 F1800 E3;
G92 E0 ; Set extrusion distance to 0
G90;


; You may want to adjust the X and Y here so the nozzle is really above the bed!
G1 X5.0 Y5.0 F7200 ; Move to a position in the left front of the bed
G1 Z0.6; Move nozzle above 0.6 mm of the bed

G91 ; Use relative mode
; Make some jerky zick-zack move at the beginning
; This is supposed to get rid of residue at the nozzle
G1 X1.0 Y5.0 Z-0.1 E-1.0 F7200 ; X6 Y10 Z0.1, retract a tiny bit / 120mm/s
G1 X1.0 Y-5.0 Z0.1 E2.0 F7200 ; X7 Y5 Z0.2 extrude a tiny bit
G1 X2.0 Y5.0 Z-0.1 F7200 ; X9 Y10 Z0.1
G1 X2.0 Y-5.0 Z0.1 F7200 ; X11 Y5 Z0.2
G1 X2.0 Y5.0 F7200 ; X13 Y10
G1 X2.0 Y-5.0 F7200 ; X15 Y5

; now print a line of filament to prepare extrusion
G1 Y50 E20 F1000 ; prints a line in the front
G1 Y50 E40 F1000 ; prints a line in the front

; Done with the dancing :)
G92 E0 ; Set extrusion distance to 0
G90 ; switch back to absolute mode

M117 Printing... ;Put printing message on LCD screen
; Start of actual GCode for the print
M900 K200; Filament gcode
G21 ; set units to millimeters
G90 ; use absolute coordinates
M83 ; use relative distances for extrusion
;BEFORE_LAYER_CHANGE
;Layer 0
;0.2mm
;Printing layer 0 at 0.2mm


G1 E-5.00000 F2700.00000
G1 Z0.200 F12000.000
;AFTER_LAYER_CHANGE
;Layer 0
;0.2mm
;Printing layer 0 at 0.2mm


G1 X151.582 Y124.958
G1 E5.00000 F2700.00000
M204 S1500
G1 F1200
G1 X151.175 Y125.460 E0.01958
G1 X115.977 Y151.749 E1.33049
G1 X114.276 Y152.645 E0.05822
G1 X112.945 Y153.139 E0.04299
G1 X112.034 Y153.388 E0.02861
G1 X110.243 Y153.675 E0.05491
G1 X107.980 Y153.681 E0.06855
G1 X106.085 Y153.379 E0.05811
G1 X104.723 Y152.978 E0.04299
G1 X103.716 Y152.574 E0.03286
G1 X102.463 Y151.923 E0.04277
G1 X101.621 Y151.384 E0.03026
G1 X100.439 Y150.452 E0.04559
G1 X99.657 Y149.700 E0.03286
G1 X73.078 Y119.405 E1.22054
G1 X66.015 Y110.111 E0.35352
G1 X65.541 Y108.958 E0.03775
G1 X65.410 Y108.185 E0.02373
G1 X65.420 Y107.380 E0.02439
G1 X65.621 Y106.425 E0.02955
G1 X65.937 Y105.697 E0.02405
G1 X66.704 Y104.651 E0.03927
G1 X75.145 Y96.885 E0.34737
G1 X104.944 Y70.086 E1.21374
G1 X105.943 Y69.295 E0.03861
G1 X107.036 Y68.576 E0.03962
G1 X108.203 Y67.958 E0.03999
G1 X109.385 Y67.464 E0.03879
G1 X111.563 Y66.860 E0.06845
G1 X112.827 Y66.675 E0.03871
G1 X114.165 Y66.602 E0.04056
G1 X115.866 Y66.693 E0.05159
G1 X117.184 Y66.912 E0.04048
G1 X118.491 Y67.250 E0.04088
G1 X120.078 Y67.853 E0.05141
G1 X121.281 Y68.470 E0.04095
G1 X122.414 Y69.186 E0.04058
G1 X123.739 Y70.243 E0.05133
G1 X124.703 Y71.201 E0.04116
G1 X154.167 Y106.599 E1.39482
G1 X154.455 Y107.117 E0.01794
G1 X154.593 Y107.697 E0.01805
G1 X154.598 Y111.059 E0.10184
G1 X151.824 Y124.358 E0.41143
G1 X151.605 Y124.902 E0.01777
G1 E-3.00000 F2700.00000
G1 F9600
G1 X151.175 Y125.460 E-0.18817
G1 X146.042 Y129.294 E-1.71183
G1 E-0.10000 F2700.00000
G1 X148.527 Y122.717 F12000.000
G1 E5.00000 F2700.00000
G1 F1200
G1 X145.172 Y122.126 E0.10320
G1 X144.967 Y123.287 E0.03571
G1 X144.903 Y123.489 E0.00640
G1 X144.822 Y123.616 E0.00457
G1 X144.712 Y123.717 E0.00452
G1 X144.574 Y123.788 E0.00472
G1 X144.430 Y123.820 E0.00446
G1 X144.219 Y123.811 E0.00640
G1 X95.588 Y115.236 E1.49551
G1 X95.774 Y114.826 E0.01363
G1 X96.149 Y113.724 E0.03526
G1 X96.209 Y113.470 E0.00790
G1 X148.481 Y122.687 E1.60748
G1 E-3.00000 F2700.00000
G1 F9600
G1 X145.172 Y122.126 E-0.89681
G1 X144.967 Y123.287 E-0.31508
G1 X144.903 Y123.489 E-0.05646
G1 X144.822 Y123.616 E-0.04031
G1 X144.712 Y123.717 E-0.03989
G1 X144.574 Y123.788 E-0.04166
G1 X144.430 Y123.820 E-0.03934
G1 X144.219 Y123.811 E-0.05646
G1 X142.693 Y123.542 E-0.41399
G1 E-0.10000 F2700.00000
G1 X145.461 Y122.539 F12000.000
G1 E5.00000 F2700.00000
G1 F1200
G1 X145.314 Y123.372 E0.02561
G1 X145.230 Y123.641 E0.00853
G1 X145.098 Y123.847 E0.00742
G1 X144.918 Y124.012 E0.00739
G1 X144.696 Y124.127 E0.00757
G1 X144.461 Y124.179 E0.00729
G1 X144.180 Y124.167 E0.00853
G1 X95.502 Y115.583 E1.49696
G1 X94.748 Y116.886 E0.04558
G1 X94.118 Y117.776 E0.03302
G1 X93.409 Y118.604 E0.03302
G1 X92.628 Y119.365 E0.03302
G1 X91.780 Y120.051 E0.03302
G1 X90.874 Y120.656 E0.03302
G1 X89.916 Y121.177 E0.03302
G1 X88.915 Y121.608 E0.03302
G1 X87.879 Y121.947 E0.03302
G1 X86.816 Y122.189 E0.03302
G1 X85.750 Y122.331 E0.03257
G1 X84.646 Y122.378 E0.03348
G1 X83.557 Y122.324 E0.03301
G1 X82.478 Y122.170 E0.03302
G1 X81.417 Y121.919 E0.03302
G1 X80.383 Y121.572 E0.03302
G1 X79.386 Y121.132 E0.03302
G1 X78.433 Y120.603 E0.03302
G1 X77.531 Y119.990 E0.03302
G1 X76.702 Y119.306 E0.03257
G1 X75.915 Y118.529 E0.03348
G1 X75.214 Y117.695 E0.03301
G1 X74.591 Y116.800 E0.03302
G1 X74.053 Y115.852 E0.03302
G1 X73.604 Y114.859 E0.03302
G1 X73.247 Y113.829 E0.03299
G1 X72.977 Y112.725 E0.03442
G1 X72.824 Y111.718 E0.03087
G1 X72.757 Y110.641 E0.03268
G1 X72.791 Y109.503 E0.03448
G1 X72.855 Y108.990 E0.01566
G1 X73.236 Y109.057 E0.01171
G1 X73.167 Y109.628 E0.01741
G1 X73.144 Y110.757 E0.03420
G1 X73.230 Y111.882 E0.03420
G1 X73.426 Y112.994 E0.03420
G1 X73.729 Y114.082 E0.03420
G1 X74.137 Y115.135 E0.03420
G1 X74.646 Y116.143 E0.03420
G1 X75.251 Y117.096 E0.03420
G1 X75.946 Y117.986 E0.03420
G1 X76.725 Y118.804 E0.03420
G1 X77.579 Y119.542 E0.03420
G1 X78.502 Y120.193 E0.03420
G1 X79.483 Y120.751 E0.03420
G1 X80.515 Y121.210 E0.03420
G1 X81.586 Y121.567 E0.03420
G1 X82.687 Y121.818 E0.03420
G1 X83.807 Y121.959 E0.03420
G1 X84.936 Y121.991 E0.03420
G1 X86.062 Y121.913 E0.03420
G1 X87.176 Y121.725 E0.03420
G1 X88.265 Y121.429 E0.03420
G1 X89.321 Y121.028 E0.03420
G1 X90.332 Y120.527 E0.03420
G1 X91.290 Y119.929 E0.03420
G1 X92.185 Y119.240 E0.03420
G1 X93.008 Y118.467 E0.03420
G1 X93.752 Y117.618 E0.03420
G1 X94.410 Y116.700 E0.03420
G1 X94.975 Y115.722 E0.03420
G1 X95.441 Y114.694 E0.03420
G1 X95.806 Y113.625 E0.03420
G1 X95.938 Y113.060 E0.01759
G1 X148.717 Y122.366 E1.62307
G1 X149.264 Y123.146 E0.02883
G1 X149.253 Y123.208 E0.00191
G1 X145.520 Y122.550 E0.11478
G1 X145.751 Y122.953 F12000.000
G1 F1200
G1 X145.662 Y123.457 E0.01550
G1 X145.556 Y123.793 E0.01066
G1 X145.374 Y124.079 E0.01026
G1 X145.124 Y124.308 E0.01025
G1 X144.819 Y124.465 E0.01042
G1 X144.493 Y124.538 E0.01012
G1 X144.141 Y124.522 E0.01066
G1 X95.686 Y115.978 E1.49010
G1 X95.048 Y117.079 E0.03852
G1 X94.399 Y117.995 E0.03400
G1 X93.670 Y118.849 E0.03400
G1 X92.865 Y119.632 E0.03400
G1 X91.993 Y120.338 E0.03400
G1 X91.059 Y120.962 E0.03400
G1 X90.073 Y121.499 E0.03400
G1 X89.041 Y121.943 E0.03400
G1 X87.974 Y122.291 E0.03400
G1 X86.879 Y122.541 E0.03400
G1 X85.781 Y122.687 E0.03355
G1 X84.644 Y122.736 E0.03446
G1 X83.523 Y122.680 E0.03400
G1 X82.411 Y122.522 E0.03400
G1 X81.319 Y122.263 E0.03400
G1 X80.254 Y121.905 E0.03400
G1 X79.227 Y121.453 E0.03400
G1 X78.245 Y120.908 E0.03400
G1 X77.317 Y120.276 E0.03400
G1 X76.462 Y119.571 E0.03355
G1 X75.652 Y118.772 E0.03446
G1 X74.930 Y117.912 E0.03400
G1 X74.289 Y116.990 E0.03400
G1 X73.735 Y116.014 E0.03400
G1 X73.272 Y114.991 E0.03400
G1 X72.904 Y113.931 E0.03400
G1 X72.627 Y112.795 E0.03541
G1 X72.468 Y111.756 E0.03183
G1 X72.400 Y110.647 E0.03366
G1 X72.435 Y109.475 E0.03549
G1 X72.547 Y108.573 E0.02755
G1 X73.630 Y108.764 E0.03332
G1 X73.524 Y109.653 E0.02711
G1 X73.501 Y110.747 E0.03314
G1 X73.585 Y111.838 E0.03314
G1 X73.774 Y112.915 E0.03314
G1 X74.069 Y113.969 E0.03314
G1 X74.464 Y114.989 E0.03314
G1 X74.957 Y115.966 E0.03314
G1 X75.543 Y116.890 E0.03314
G1 X76.217 Y117.753 E0.03314
G1 X76.971 Y118.545 E0.03314
G1 X77.799 Y119.260 E0.03314
G1 X78.693 Y119.891 E0.03314
G1 X79.644 Y120.432 E0.03314
G1 X80.644 Y120.877 E0.03314
G1 X81.682 Y121.223 E0.03314
G1 X82.749 Y121.466 E0.03314
G1 X83.835 Y121.603 E0.03314
G1 X84.928 Y121.634 E0.03314
G1 X86.020 Y121.558 E0.03314
G1 X87.099 Y121.376 E0.03314
G1 X88.155 Y121.089 E0.03314
G1 X89.178 Y120.701 E0.03314
G1 X90.158 Y120.214 E0.03314
G1 X91.086 Y119.635 E0.03314
G1 X91.953 Y118.968 E0.03314
G1 X92.751 Y118.219 E0.03314
G1 X93.472 Y117.396 E0.03314
G1 X94.109 Y116.506 E0.03314
G1 X94.657 Y115.559 E0.03314
G1 X95.109 Y114.563 E0.03314
G1 X95.462 Y113.527 E0.03314
G1 X95.668 Y112.650 E0.02729
G1 X148.925 Y122.040 E1.63777
G1 X149.641 Y123.062 E0.03779
G1 X149.542 Y123.622 E0.01720
G1 X145.810 Y122.963 E0.11478
G1 X145.354 Y122.903 F12000.000
G1 X144.942 Y122.812
G1 F1200
G1 X144.363 Y122.233 E0.02505
G1 X143.743 Y122.124 E0.01925
G1 X144.727 Y123.107 E0.04255
G1 X144.658 Y123.374 E0.00844
G1 X144.582 Y123.473 E0.00381
G1 X143.124 Y122.015 E0.06309
G1 X142.505 Y121.905 E0.01925
G1 X144.121 Y123.522 E0.06994
G1 X143.501 Y123.412 E0.01925
G1 X141.885 Y121.796 E0.06994
G1 X141.266 Y121.687 E0.01925
G1 X142.882 Y123.303 E0.06994
G1 X142.263 Y123.194 E0.01925
G1 X140.646 Y121.578 E0.06994
G1 X140.027 Y121.468 E0.01925
G1 X141.643 Y123.085 E0.06994
G1 X141.024 Y122.976 E0.01925
G1 X139.407 Y121.359 E0.06994
G1 X138.788 Y121.250 E0.01925
G1 X140.404 Y122.866 E0.06994
G1 X139.785 Y122.757 E0.01925
G1 X138.169 Y121.141 E0.06994
G1 X137.549 Y121.032 E0.01925
G1 X139.165 Y122.648 E0.06994
G1 X138.546 Y122.539 E0.01925
G1 X136.930 Y120.922 E0.06994
G1 X136.310 Y120.813 E0.01925
G1 X137.927 Y122.429 E0.06994
G1 X137.307 Y122.320 E0.01925
G1 X135.691 Y120.704 E0.06994
G1 X135.071 Y120.595 E0.01925
G1 X136.688 Y122.211 E0.06994
G1 X136.068 Y122.102 E0.01925
G1 X134.452 Y120.485 E0.06994
G1 X133.833 Y120.376 E0.01925
G1 X135.449 Y121.993 E0.06994
G1 X134.830 Y121.883 E0.01925
G1 X133.213 Y120.267 E0.06994
G1 X132.594 Y120.158 E0.01925
G1 X134.210 Y121.774 E0.06994
G1 X133.591 Y121.665 E0.01925
G1 X131.974 Y120.049 E0.06994
G1 X131.355 Y119.939 E0.01925
G1 X132.971 Y121.556 E0.06994
G1 X132.352 Y121.446 E0.01925
G1 X130.736 Y119.830 E0.06994
G1 X130.116 Y119.721 E0.01925
G1 X131.732 Y121.337 E0.06994
G1 X131.113 Y121.228 E0.01925
G1 X129.497 Y119.612 E0.06994
G1 X128.877 Y119.502 E0.01925
G1 X130.494 Y121.119 E0.06994
G1 X129.874 Y121.010 E0.01925
G1 X128.258 Y119.393 E0.06994
G1 X127.638 Y119.284 E0.01925
G1 X129.255 Y120.900 E0.06994
G1 X128.635 Y120.791 E0.01925
G1 X127.019 Y119.175 E0.06994
G1 X126.400 Y119.066 E0.01925
G1 X128.016 Y120.682 E0.06994
G1 X127.397 Y120.573 E0.01925
G1 X125.780 Y118.956 E0.06994
G1 X125.161 Y118.847 E0.01925
G1 X126.777 Y120.463 E0.06994
G1 X126.158 Y120.354 E0.01925
G1 X124.541 Y118.738 E0.06994
G1 X123.922 Y118.629 E0.01925
G1 X125.538 Y120.245 E0.06994
G1 X124.919 Y120.136 E0.01925
G1 X123.303 Y118.519 E0.06994
G1 X122.683 Y118.410 E0.01925
G1 X124.299 Y120.027 E0.06994
G1 X123.680 Y119.917 E0.01925
G1 X122.064 Y118.301 E0.06994
G1 X121.444 Y118.192 E0.01925
G1 X123.061 Y119.808 E0.06994
G1 X122.441 Y119.699 E0.01925
G1 X120.825 Y118.083 E0.06994
G1 X120.205 Y117.973 E0.01925
G1 X121.822 Y119.590 E0.06994
G1 X121.202 Y119.481 E0.01925
G1 X119.586 Y117.864 E0.06994
G1 X118.967 Y117.755 E0.01925
G1 X120.583 Y119.371 E0.06994
G1 X119.964 Y119.262 E0.01925
G1 X118.347 Y117.646 E0.06994
G1 X117.728 Y117.537 E0.01925
G1 X119.344 Y119.153 E0.06994
G1 X118.725 Y119.044 E0.01925
G1 X117.108 Y117.427 E0.06994
G1 X116.489 Y117.318 E0.01925
G1 X118.105 Y118.934 E0.06994
G1 X117.486 Y118.825 E0.01925
G1 X115.869 Y117.209 E0.06994
G1 X115.250 Y117.100 E0.01925
G1 X116.866 Y118.716 E0.06994
G1 X116.247 Y118.607 E0.01925
G1 X114.631 Y116.990 E0.06994
G1 X114.011 Y116.881 E0.01925
G1 X115.628 Y118.498 E0.06994
G1 X115.008 Y118.388 E0.01925
G1 X113.392 Y116.772 E0.06994
G1 X112.772 Y116.663 E0.01925
G1 X114.389 Y118.279 E0.06994
G1 X113.769 Y118.170 E0.01925
G1 X112.153 Y116.554 E0.06994
G1 X111.534 Y116.444 E0.01925
G1 X113.150 Y118.061 E0.06994
G1 X112.530 Y117.951 E0.01925
G1 X110.914 Y116.335 E0.06994
G1 X110.295 Y116.226 E0.01925
G1 X111.911 Y117.842 E0.06994
G1 X111.292 Y117.733 E0.01925
G1 X109.675 Y116.117 E0.06994
G1 X109.056 Y116.007 E0.01925
G1 X110.672 Y117.624 E0.06994
G1 X110.053 Y117.515 E0.01925
G1 X108.436 Y115.898 E0.06994
G1 X107.817 Y115.789 E0.01925
G1 X109.433 Y117.405 E0.06994
G1 X108.814 Y117.296 E0.01925
G1 X107.198 Y115.680 E0.06994
G1 X106.578 Y115.571 E0.01925
G1 X108.195 Y117.187 E0.06994
G1 X107.575 Y117.078 E0.01925
G1 X105.959 Y115.461 E0.06994
G1 X105.339 Y115.352 E0.01925
G1 X106.956 Y116.968 E0.06994
G1 X106.336 Y116.859 E0.01925
G1 X104.720 Y115.243 E0.06994
G1 X104.101 Y115.134 E0.01925
G1 X105.717 Y116.750 E0.06994
G1 X105.097 Y116.641 E0.01925
G1 X103.481 Y115.024 E0.06994
G1 X102.862 Y114.915 E0.01925
G1 X104.478 Y116.532 E0.06994
G1 X103.859 Y116.422 E0.01925
G1 X102.242 Y114.806 E0.06994
G1 X101.623 Y114.697 E0.01925
G1 X103.239 Y116.313 E0.06994
G1 X102.620 Y116.204 E0.01925
G1 X101.003 Y114.588 E0.06994
G1 X100.384 Y114.478 E0.01925
G1 X102.000 Y116.095 E0.06994
G1 X101.381 Y115.985 E0.01925
G1 X99.765 Y114.369 E0.06994
G1 X99.145 Y114.260 E0.01925
G1 X100.762 Y115.876 E0.06994
G1 X100.142 Y115.767 E0.01925
G1 X98.526 Y114.151 E0.06994
G1 X97.906 Y114.041 E0.01925
G1 X99.523 Y115.658 E0.06994
G1 X98.903 Y115.549 E0.01925
G1 X97.287 Y113.932 E0.06994
G1 X96.668 Y113.823 E0.01925
G1 X98.284 Y115.439 E0.06994
G1 X97.664 Y115.330 E0.01925
G1 X96.337 Y114.003 E0.05743
G1 X96.208 Y114.383 E0.01230
G1 X97.045 Y115.221 E0.03624
G1 X96.426 Y115.112 E0.01925
G1 X95.951 Y114.637 E0.02052
G1 X95.369 Y115.379 F12000.000
G1 F1200
G1 X95.222 Y115.665 E0.00201
G1 E-3.00000 F2700.00000
G1 F9600
G1 X95.369 Y115.379 E-0.08607
G1 E-1.91393 F2700.00000
G1 X70.494 Y107.932 F12000.000
G1 E5.00000 F2700.00000
G1 F1200
G1 X70.449 Y108.075 E0.00457
G1 X70.367 Y108.203 E0.00457
G1 X70.256 Y108.305 E0.00457
G1 X70.122 Y108.374 E0.00457
G1 X69.982 Y108.405 E0.00435
G1 X69.807 Y108.395 E0.00530
G1 X69.680 Y108.355 E0.00403
G1 X69.553 Y108.274 E0.00457
G1 X69.451 Y108.163 E0.00457
G1 X69.382 Y108.029 E0.00457
G1 X69.349 Y107.882 E0.00457
G1 X69.356 Y107.731 E0.00457
G1 X69.401 Y107.587 E0.00457
G1 X69.482 Y107.460 E0.00457
G1 X69.593 Y107.358 E0.00457
G1 X69.721 Y107.291 E0.00435
G1 X69.892 Y107.256 E0.00530
G1 X70.025 Y107.262 E0.00403
G1 X70.169 Y107.307 E0.00457
G1 X70.296 Y107.388 E0.00457
G1 X70.398 Y107.500 E0.00457
G1 X70.468 Y107.634 E0.00457
G1 X70.500 Y107.781 E0.00457
G1 X70.496 Y107.872 E0.00275
G1 X70.853 Y107.887 F12000.000
G1 F1200
G1 X70.849 Y107.994 E0.00324
G1 X70.775 Y108.228 E0.00742
G1 X70.643 Y108.434 E0.00742
G1 X70.463 Y108.600 E0.00742
G1 X70.246 Y108.713 E0.00742
G1 X70.011 Y108.765 E0.00728
G1 X69.742 Y108.749 E0.00815
G1 X69.528 Y108.681 E0.00680
G1 X69.322 Y108.550 E0.00742
G1 X69.156 Y108.369 E0.00742
G1 X69.043 Y108.152 E0.00742
G1 X68.990 Y107.913 E0.00742
G1 X69.001 Y107.668 E0.00742
G1 X69.074 Y107.435 E0.00742
G1 X69.206 Y107.228 E0.00742
G1 X69.387 Y107.063 E0.00742
G1 X69.600 Y106.952 E0.00728
G1 X69.863 Y106.898 E0.00815
G1 X70.088 Y106.907 E0.00680
