; generated by PrusaSlicer 2.0.0+win64 on 2019-07-07 at 21:59:55

; 

; external perimeters extrusion width = 0.40mm
; perimeters extrusion width = 0.40mm
; infill extrusion width = 0.40mm
; solid infill extrusion width = 0.40mm
; top infill extrusion width = 0.40mm
; first layer extrusion width = 0.40mm

M201 X9000 Y9000 Z500 E10000 ; sets maximum accelerations, mm/sec^2
M203 X500 Y500 Z12 E120 ; sets maximum feedrates, mm/sec
M204 P1500 R1500 T1500 ; sets acceleration (P, T) and retract acceleration (R), mm/sec^2
M205 X10.00 Y10.00 Z0.20 E2.50 ; sets the jerk limits, mm/sec
M205 S0 T0 ; sets the minimum extruding and travel feed rate, mm/sec
M107
M201 X500.00 Y500.00 Z100.00 E5000.00 ;Setup machine max acceleration
M203 X500.00 Y500.00 Z10.00 E50.00 ;Setup machine max feedrate
M204 P500.00 R1000.00 T500.00 ;Setup Print/Retract/Travel acceleration
M205 X8.00 Y8.00 Z0.40 E5.00 ;Setup Jerk
M220 S100 ;Reset Feedrate
M221 S100 ;Reset Flowrate

M117 Heating... ;Put printing message on LCD screen
M104 S210 ; set extruder temp
M140 S60 ; set bed temp
G1 Z20 ; this is a good start heating position
G28 X Y; Home XY
M84 ; disable motors
M190 S60 ; wait for bed temp
M109 S210 ; wait for extruder temp

; Start of print
G21; metric values
G90 ; absolute positioning
M82; set extruder to absolute mode

G28;
M92 E94.55 ;Calibrated Extruder

; Prepare nozzle
G92 E0 ; Set extrusion distance to 0
G92 E0 ; Set extrusion distance to 0
G1 F1800 E3;
G92 E0 ; Set extrusion distance to 0
G90;


; You may want to adjust the X and Y here so the nozzle is really above the bed!
G1 X5.0 Y5.0 F7200 ; Move to a position in the left front of the bed
G1 Z0.6; Move nozzle above 0.6 mm of the bed

G91 ; Use relative mode
; Make some jerky zick-zack move at the beginning
; This is supposed to get rid of residue at the nozzle
G1 X1.0 Y5.0 Z-0.1 E-1.0 F7200 ; X6 Y10 Z0.1, retract a tiny bit / 120mm/s
G1 X1.0 Y-5.0 Z0.1 E2.0 F7200 ; X7 Y5 Z0.2 extrude a tiny bit
G1 X2.0 Y5.0 Z-0.1 F7200 ; X9 Y10 Z0.1
G1 X2.0 Y-5.0 Z0.1 F7200 ; X11 Y5 Z0.2
G1 X2.0 Y5.0 F7200 ; X13 Y10
G1 X2.0 Y-5.0 F7200 ; X15 Y5

; now print a line of filament to prepare extrusion
G1 Y50 E20 F1000 ; prints a line in the front
G1 Y50 E40 F1000 ; prints a line in the front

; Done with the dancing :)
G92 E0 ; Set extrusion distance to 0
G90 ; switch back to absolute mode

M117 Printing... ;Put printing message on LCD screen
; Start of actual GCode for the print
M900 K200; Filament gcode
G21 ; set units to millimeters
G90 ; use absolute coordinates
M83 ; use relative distances for extrusion
;BEFORE_LAYER_CHANGE
;Layer 0
;0.2mm
;Printing layer 0 at 0.2mm


G1 E-5.00000 F2700.00000
G1 Z0.200 F12000.000
;AFTER_LAYER_CHANGE
;Layer 0
;0.2mm
;Printing layer 0 at 0.2mm


G1 X93.486 Y93.737
G1 E5.00000 F2700.00000
M204 S1500
G1 F1200
G1 X95.478 Y91.936 E0.08133
G1 X96.808 Y90.946 E0.05021
G1 X99.013 Y89.592 E0.07837
G1 X101.440 Y88.461 E0.08110
G1 X103.009 Y87.904 E0.05042
G1 X105.513 Y87.260 E0.07828
G1 X108.169 Y86.895 E0.08120
G1 X109.714 Y86.824 E0.04685
G1 X112.334 Y86.940 E0.07943
G1 X113.975 Y87.168 E0.05019
G1 X116.495 Y87.750 E0.07831
G1 X119.023 Y88.650 E0.08129
G1 X120.525 Y89.351 E0.05018
G1 X122.767 Y90.654 E0.07855
G1 X124.915 Y92.258 E0.08117
G1 X126.145 Y93.372 E0.05028
G1 X127.900 Y95.273 E0.07834
G1 X129.479 Y97.438 E0.08117
G1 X130.327 Y98.866 E0.05027
G1 X131.447 Y101.206 E0.07858
G1 X132.317 Y103.741 E0.08116
G1 X132.706 Y105.354 E0.05026
G1 X133.086 Y107.918 E0.07849
G1 X133.171 Y110.589 E0.08093
G1 X133.068 Y112.248 E0.05036
G1 X132.674 Y114.814 E0.07862
G1 X131.966 Y117.398 E0.08114
G1 X131.379 Y118.950 E0.05024
G1 X130.248 Y121.283 E0.07853
G1 X128.812 Y123.540 E0.08102
G1 X127.792 Y124.853 E0.05034
G1 X126.031 Y126.742 E0.07821
G1 X124.851 Y127.793 E0.04786
G1 X122.772 Y129.343 E0.07854
G1 X120.458 Y130.685 E0.08101
G1 X118.948 Y131.379 E0.05036
G1 X116.511 Y132.246 E0.07832
G1 X113.947 Y132.839 E0.07969
G1 X112.275 Y133.065 E0.05112
G1 X109.674 Y133.176 E0.07884
G1 X108.181 Y133.106 E0.04527
G1 X105.519 Y132.741 E0.08138
G1 X102.921 Y132.070 E0.08125
G1 X101.360 Y131.504 E0.05028
G1 X99.019 Y130.412 E0.07824
G1 X96.734 Y129.005 E0.08127
G1 X95.409 Y128.005 E0.05027
G1 X93.496 Y126.273 E0.07815
G1 X92.425 Y125.106 E0.04799
G1 X90.849 Y123.056 E0.07829
G1 X89.470 Y120.755 E0.08125
G1 X88.753 Y119.254 E0.05035
G1 X87.853 Y116.835 E0.07819
G1 X87.212 Y114.230 E0.08125
G1 X86.970 Y112.585 E0.05035
G1 X86.822 Y110.003 E0.07831
G1 X86.977 Y107.333 E0.08102
G1 X87.196 Y105.858 E0.04516
G1 X87.826 Y103.255 E0.08112
G1 X88.369 Y101.683 E0.05035
G1 X89.426 Y99.327 E0.07821
G1 X90.797 Y97.022 E0.08122
G1 X91.778 Y95.680 E0.05033
G1 X93.446 Y93.782 E0.07654
G1 E-3.00000 F2700.00000
G1 F9600
G1 X95.478 Y91.936 E-0.73341
G1 X96.808 Y90.946 E-0.44298
G1 X99.013 Y89.592 E-0.69141
G1 X99.122 Y89.541 E-0.03221
G1 E-0.10000 F2700.00000
G1 X109.012 Y125.955 F12000.000
G1 E5.00000 F2700.00000
G1 F1200
G1 X109.407 Y125.818 E0.01267
G1 X109.807 Y125.760 E0.01222
G1 X110.239 Y125.778 E0.01310
G1 X110.646 Y125.877 E0.01269
G1 X111.027 Y126.050 E0.01267
G1 X111.368 Y126.293 E0.01267
G1 X111.656 Y126.596 E0.01267
G1 X111.883 Y126.948 E0.01267
G1 X112.038 Y127.336 E0.01267
G1 X112.117 Y127.747 E0.01267
G1 X112.117 Y128.166 E0.01267
G1 X112.038 Y128.577 E0.01267
G1 X111.883 Y128.965 E0.01267
G1 X111.656 Y129.317 E0.01267
G1 X111.368 Y129.620 E0.01267
G1 X111.027 Y129.863 E0.01267
G1 X110.646 Y130.036 E0.01267
G1 X110.239 Y130.135 E0.01267
G1 X109.822 Y130.155 E0.01267
G1 X109.407 Y130.095 E0.01267
G1 X109.012 Y129.959 E0.01267
G1 X108.650 Y129.749 E0.01267
G1 X108.333 Y129.475 E0.01267
G1 X108.075 Y129.146 E0.01267
G1 X107.883 Y128.775 E0.01267
G1 X107.765 Y128.373 E0.01267
G1 X107.725 Y127.957 E0.01267
G1 X107.765 Y127.540 E0.01267
G1 X107.883 Y127.139 E0.01267
G1 X108.075 Y126.767 E0.01267
G1 X108.333 Y126.438 E0.01267
G1 X108.650 Y126.164 E0.01267
G1 X108.960 Y125.985 E0.01085
G1 X109.050 Y125.556 F12000.000
G1 E-3.00000 F2700.00000
G1 F9600
G1 X109.407 Y125.818 E-0.12757
G1 X109.807 Y125.760 E-0.10780
G1 X110.239 Y125.778 E-0.11554
G1 X110.646 Y125.877 E-0.11198
G1 X111.027 Y126.050 E-0.11180
G1 X111.368 Y126.293 E-0.11180
G1 X111.656 Y126.596 E-0.11180
G1 X111.883 Y126.948 E-0.11180
G1 X112.038 Y127.336 E-0.11180
G1 X112.117 Y127.747 E-0.11180
G1 X112.117 Y128.166 E-0.11180
G1 X112.038 Y128.577 E-0.11180
G1 X111.883 Y128.965 E-0.11180
G1 X111.656 Y129.317 E-0.11180
G1 X111.368 Y129.620 E-0.11180
G1 X111.027 Y129.863 E-0.11180
G1 X110.701 Y130.011 E-0.09555
G1 E-0.10000 F2700.00000
G1 X108.678 Y125.224 F12000.000
G1 X103.117 Y115.591
G1 X102.807 Y117.990
G1 X102.822 Y120.198
G1 X103.165 Y122.704
G1 X103.971 Y125.364
G1 X104.921 Y127.192
G1 X106.166 Y128.763
G1 X107.610 Y129.850
G1 X109.256 Y130.421
G1 E5.00000 F2700.00000
G1 F1200
G1 X108.469 Y130.385 E0.02386
G1 X107.257 Y130.258 E0.03690
G1 X106.055 Y130.058 E0.03690
G1 X104.867 Y129.788 E0.03689
G1 X103.660 Y129.434 E0.03808
G1 X102.538 Y129.032 E0.03610
G1 X101.413 Y128.551 E0.03704
G1 X100.319 Y128.005 E0.03704
G1 X99.260 Y127.394 E0.03703
G1 X98.214 Y126.702 E0.03799
G1 X97.260 Y125.987 E0.03610
G1 X96.327 Y125.196 E0.03704
G1 X95.443 Y124.351 E0.03704
G1 X94.611 Y123.455 E0.03703
G1 X93.815 Y122.486 E0.03799
G1 X93.114 Y121.521 E0.03610
G1 X92.455 Y120.491 E0.03704
G1 X91.859 Y119.423 E0.03704
G1 X91.329 Y118.321 E0.03703
G1 X90.854 Y117.160 E0.03799
G1 X90.469 Y116.032 E0.03610
G1 X90.143 Y114.853 E0.03704
G1 X89.888 Y113.657 E0.03704
G1 X89.705 Y112.448 E0.03703
G1 X89.594 Y111.198 E0.03799
G1 X89.558 Y110.007 E0.03610
G1 X89.594 Y108.785 E0.03703
G1 X89.708 Y107.535 E0.03799
G1 X89.886 Y106.357 E0.03610
G1 X90.139 Y105.160 E0.03704
G1 X90.464 Y103.981 E0.03704
G1 X90.859 Y102.824 E0.03703
G1 X91.336 Y101.664 E0.03799
G1 X91.853 Y100.590 E0.03610
G1 X92.448 Y99.521 E0.03704
G1 X93.106 Y98.490 E0.03704
G1 X93.825 Y97.501 E0.03703
G1 X94.622 Y96.532 E0.03799
G1 X95.433 Y95.659 E0.03610
G1 X96.317 Y94.813 E0.03703
G1 X97.274 Y94.003 E0.03799
G1 X98.228 Y93.288 E0.03610
G1 X99.248 Y92.614 E0.03704
G1 X100.307 Y92.002 E0.03704
G1 X101.401 Y91.454 E0.03703
G1 X102.554 Y90.962 E0.03799
G1 X103.677 Y90.560 E0.03610
G1 X104.851 Y90.217 E0.03704
G1 X106.043 Y89.944 E0.03704
G1 X107.249 Y89.743 E0.03703
G1 X108.497 Y89.613 E0.03799
G1 X109.687 Y89.560 E0.03610
G1 X110.910 Y89.578 E0.03703
G1 X112.161 Y89.672 E0.03799
G1 X113.342 Y89.832 E0.03610
G1 X114.542 Y90.068 E0.03704
G1 X115.726 Y90.375 E0.03704
G1 X116.889 Y90.753 E0.03703
G1 X118.057 Y91.212 E0.03799
G1 X119.138 Y91.713 E0.03610
G1 X120.215 Y92.292 E0.03704
G1 X121.256 Y92.935 E0.03704
G1 X122.256 Y93.638 E0.03703
G1 X123.236 Y94.421 E0.03799
G1 X124.122 Y95.219 E0.03610
G1 X124.981 Y96.089 E0.03703
G1 X125.805 Y97.035 E0.03799
G1 X126.535 Y97.977 E0.03610
G1 X127.224 Y98.988 E0.03704
G1 X127.852 Y100.038 E0.03704
G1 X128.415 Y101.123 E0.03703
G1 X128.925 Y102.269 E0.03799
G1 X129.344 Y103.385 E0.03610
G1 X129.705 Y104.554 E0.03704
G1 X129.995 Y105.742 E0.03704
G1 X130.214 Y106.945 E0.03703
G1 X130.363 Y108.190 E0.03799
G1 X130.434 Y109.380 E0.03610
G1 X130.435 Y110.603 E0.03704
G1 X130.359 Y111.855 E0.03799
G1 X130.217 Y113.038 E0.03610
G1 X129.999 Y114.242 E0.03704
G1 X129.709 Y115.430 E0.03704
G1 X129.349 Y116.599 E0.03703
G1 X128.908 Y117.773 E0.03799
G1 X128.423 Y118.862 E0.03610
G1 X127.860 Y119.948 E0.03704
G1 X127.233 Y120.998 E0.03704
G1 X126.545 Y122.009 E0.03703
G1 X125.777 Y123.000 E0.03799
G1 X124.992 Y123.898 E0.03610
G1 X124.134 Y124.770 E0.03704
G1 X123.226 Y125.589 E0.03704
G1 X122.270 Y126.351 E0.03703
G1 X121.244 Y127.073 E0.03799
G1 X120.230 Y127.699 E0.03610
G1 X119.153 Y128.279 E0.03704
G1 X118.044 Y128.794 E0.03704
G1 X116.906 Y129.241 E0.03703
G1 X115.702 Y129.631 E0.03832
G1 X114.563 Y129.927 E0.03563
G1 X113.368 Y130.163 E0.03690
G1 X112.119 Y130.332 E0.03817
G1 X110.904 Y130.423 E0.03689
G1 X110.548 Y130.428 E0.01081
G1 X110.763 Y130.375 E0.00673
G1 X111.206 Y130.173 E0.01474
G1 X111.602 Y129.891 E0.01474
G1 X111.938 Y129.539 E0.01474
G1 X112.201 Y129.129 E0.01474
G1 X112.382 Y128.678 E0.01474
G1 X112.474 Y128.200 E0.01474
G1 X112.474 Y127.713 E0.01474
G1 X112.382 Y127.235 E0.01474
G1 X112.201 Y126.784 E0.01474
G1 X111.938 Y126.374 E0.01474
G1 X111.602 Y126.022 E0.01474
G1 X111.206 Y125.740 E0.01474
G1 X110.763 Y125.538 E0.01474
G1 X110.289 Y125.423 E0.01480
G1 X109.788 Y125.402 E0.01516
G1 X109.323 Y125.469 E0.01425
G1 X108.863 Y125.628 E0.01474
G1 X108.442 Y125.872 E0.01474
G1 X108.074 Y126.190 E0.01474
G1 X107.773 Y126.573 E0.01474
G1 X107.550 Y127.005 E0.01474
G1 X107.413 Y127.472 E0.01474
G1 X107.367 Y127.957 E0.01474
G1 X107.413 Y128.441 E0.01474
G1 X107.550 Y128.908 E0.01474
G1 X107.773 Y129.340 E0.01474
G1 X108.074 Y129.723 E0.01474
G1 X108.442 Y130.042 E0.01474
G1 X108.863 Y130.285 E0.01474
G1 X109.199 Y130.401 E0.01077
G1 X109.182 Y130.775 F12000.000
G1 F1200
G1 X108.442 Y130.741 E0.02244
G1 X107.209 Y130.612 E0.03755
G1 X105.986 Y130.409 E0.03755
G1 X104.777 Y130.133 E0.03754
G1 X103.550 Y129.774 E0.03873
G1 X102.408 Y129.364 E0.03674
G1 X101.263 Y128.876 E0.03769
G1 X100.150 Y128.319 E0.03769
G1 X99.072 Y127.698 E0.03768
G1 X98.008 Y126.994 E0.03864
G1 X97.038 Y126.266 E0.03674
G1 X96.088 Y125.462 E0.03769
G1 X95.188 Y124.602 E0.03769
G1 X94.342 Y123.690 E0.03768
G1 X93.532 Y122.704 E0.03864
G1 X92.819 Y121.723 E0.03674
G1 X92.149 Y120.674 E0.03769
G1 X91.542 Y119.587 E0.03769
G1 X91.002 Y118.466 E0.03768
G1 X90.519 Y117.286 E0.03864
G1 X90.127 Y116.137 E0.03674
G1 X89.796 Y114.938 E0.03769
G1 X89.537 Y113.721 E0.03769
G1 X89.351 Y112.490 E0.03768
G1 X89.237 Y111.220 E0.03864
G1 X89.201 Y110.007 E0.03674
G1 X89.238 Y108.763 E0.03769
G1 X89.353 Y107.493 E0.03864
G1 X89.534 Y106.293 E0.03674
G1 X89.792 Y105.076 E0.03769
G1 X90.123 Y103.876 E0.03769
G1 X90.525 Y102.698 E0.03768
G1 X91.010 Y101.518 E0.03864
G1 X91.536 Y100.425 E0.03674
G1 X92.142 Y99.338 E0.03769
G1 X92.811 Y98.289 E0.03769
G1 X93.542 Y97.282 E0.03768
G1 X94.353 Y96.297 E0.03864
G1 X95.178 Y95.408 E0.03674
G1 X96.078 Y94.548 E0.03769
G1 X97.051 Y93.724 E0.03864
G1 X98.022 Y92.996 E0.03674
G1 X99.060 Y92.310 E0.03769
G1 X100.138 Y91.687 E0.03769
G1 X101.251 Y91.130 E0.03768
G1 X102.424 Y90.630 E0.03864
G1 X103.566 Y90.221 E0.03674
G1 X104.761 Y89.871 E0.03769
G1 X105.974 Y89.594 E0.03769
G1 X107.201 Y89.389 E0.03768
G1 X108.470 Y89.257 E0.03864
G1 X109.682 Y89.203 E0.03674
G1 X110.926 Y89.221 E0.03769
G1 X112.198 Y89.317 E0.03864
G1 X113.401 Y89.480 E0.03674
G1 X114.622 Y89.720 E0.03769
G1 X115.826 Y90.033 E0.03769
G1 X117.010 Y90.417 E0.03768
G1 X118.197 Y90.884 E0.03864
G1 X119.298 Y91.393 E0.03674
G1 X120.394 Y91.983 E0.03769
G1 X121.453 Y92.637 E0.03769
G1 X122.471 Y93.352 E0.03768
G1 X123.467 Y94.149 E0.03864
G1 X124.369 Y94.960 E0.03674
G1 X125.243 Y95.846 E0.03769
G1 X126.081 Y96.808 E0.03864
G1 X126.824 Y97.767 E0.03674
G1 X127.525 Y98.795 E0.03769
G1 X128.164 Y99.863 E0.03769
G1 X128.737 Y100.968 E0.03768
G1 X129.255 Y102.134 E0.03864
G1 X129.682 Y103.269 E0.03674
G1 X130.049 Y104.458 E0.03769
G1 X130.345 Y105.667 E0.03769
G1 X130.567 Y106.891 E0.03768
G1 X130.719 Y108.158 E0.03864
G1 X130.791 Y109.369 E0.03674
G1 X130.792 Y110.614 E0.03769
G1 X130.715 Y111.887 E0.03864
G1 X130.570 Y113.091 E0.03674
G1 X130.348 Y114.316 E0.03769
G1 X130.054 Y115.525 E0.03769
G1 X129.687 Y116.714 E0.03768
G1 X129.238 Y117.908 E0.03864
G1 X128.745 Y119.017 E0.03674
G1 X128.172 Y120.122 E0.03769
G1 X127.534 Y121.190 E0.03769
G1 X126.834 Y122.219 E0.03768
G1 X126.053 Y123.227 E0.03864
G1 X125.254 Y124.141 E0.03674
G1 X124.381 Y125.028 E0.03769
G1 X123.457 Y125.861 E0.03769
G1 X122.484 Y126.637 E0.03768
G1 X121.441 Y127.371 E0.03864
G1 X120.409 Y128.009 E0.03674
G1 X119.313 Y128.599 E0.03769
G1 X118.184 Y129.122 E0.03769
G1 X117.026 Y129.578 E0.03768
G1 X115.802 Y129.974 E0.03897
G1 X114.643 Y130.275 E0.03627
G1 X113.427 Y130.516 E0.03754
G1 X112.156 Y130.688 E0.03882
G1 X110.920 Y130.779 E0.03754
G1 X109.680 Y130.797 E0.03755
G1 X109.242 Y130.778 E0.01329
G1 X108.993 Y130.422 F12000.000
G1 X109.433 Y130.444
G1 F1200
G1 X109.820 Y130.475 E0.00936
G1 X110.371 Y130.458 E0.01387
G1 E-3.00000 F2700.00000
G1 F9600
G1 X109.820 Y130.475 E-0.14748
G1 E-1.85252 F2700.00000
G1 X111.902 Y129.732 F12000.000
G1 E5.00000 F2700.00000
G1 F1200
G1 X112.218 Y130.049 E0.01367
G1 X112.667 Y129.988 E0.01383
G1 X112.241 Y129.563 E0.01838
G1 X112.441 Y129.252 E0.01126
G1 X113.115 Y129.927 E0.02915
G1 X113.551 Y129.854 E0.01351
G1 X112.586 Y128.889 E0.04170
G1 X112.640 Y128.753 E0.00445
G1 X112.692 Y128.485 E0.00835
G1 X113.977 Y129.770 E0.05550
G1 X114.402 Y129.686 E0.01324
G1 X112.742 Y128.026 E0.07171
G1 X112.742 Y127.688 E0.01033
G1 X112.701 Y127.476 E0.00660
G1 X114.811 Y129.586 E0.09116
G1 X115.216 Y129.481 E0.01276
G1 X90.521 Y104.786 E1.06688
G1 X90.631 Y104.386 E0.01265
G1 X115.620 Y129.376 E1.07959
G1 X116.005 Y129.251 E0.01236
G1 X90.744 Y103.991 E1.09132
G1 X90.874 Y103.611 E0.01226
G1 X116.390 Y129.127 E1.10234
G1 X116.775 Y129.002 E0.01236
G1 X91.003 Y103.231 E1.11337
G1 X91.136 Y102.854 E0.01220
G1 X117.142 Y128.860 E1.12351
G1 X117.508 Y128.717 E0.01200
G1 X91.285 Y102.493 E1.13290
G1 X91.433 Y102.132 E0.01192
G1 X117.874 Y128.573 E1.14230
G1 X118.225 Y128.415 E0.01177
G1 X91.581 Y101.771 E1.15105
G1 X91.747 Y101.427 E0.01166
G1 X118.573 Y128.253 E1.15893
G1 X118.921 Y128.092 E0.01172
G1 X91.912 Y101.084 E1.16681
G1 X92.078 Y100.740 E0.01166
G1 X119.257 Y127.919 E1.17420
G1 X119.588 Y127.741 E0.01149
G1 X92.259 Y100.411 E1.18068
G1 X92.441 Y100.084 E0.01144
G1 X119.919 Y127.562 E1.18711
G1 X120.243 Y127.377 E0.01140
G1 X92.623 Y99.757 E1.19321
G1 X92.678 Y99.658 E0.00345
G1 X92.817 Y99.441 E0.00787
G1 X120.558 Y127.182 E1.19845
G1 X120.872 Y126.988 E0.01131
G1 X93.015 Y99.130 E1.20348
G1 X93.214 Y98.820 E0.01127
G1 X121.183 Y126.788 E1.20831
G1 X121.482 Y126.578 E0.01117
G1 X93.419 Y98.515 E1.21237
G1 X93.633 Y98.220 E0.01114
G1 X121.781 Y126.368 E1.21603
G1 X122.080 Y126.158 E0.01117
G1 X93.848 Y97.925 E1.21970
G1 X94.064 Y97.632 E0.01113
G1 X122.365 Y125.933 E1.22267
