; generated by SuperSlicer 2.2.53 on 2020-09-22 at 21:25:29 UTC

; 

; external perimeters extrusion width = 0.42mm
; perimeters extrusion width = 0.44mm
; infill extrusion width = 0.44mm
; solid infill extrusion width = 0.44mm
; top infill extrusion width = 0.44mm
; first layer extrusion width = 0.56mm

; object:{"name":"cableChain_bedCorner_v2","id":"cableChain_bedCorner_v2.stl id:0 copy 0","object_center":[141.480772,116.524899,0.000000],"boundingbox_center":[141.480772,116.524899,9.580020],"boundingbox_size":[39.491116,77.630043,19.160040]}
; object:{"name":"cableChain_bedCornerCover_v2","id":"cableChain_bedCornerCover_v2.stl id:1 copy 0","object_center":[119.373304,78.907211,0.000000],"boundingbox_center":[119.373304,78.907211,17.068558],"boundingbox_size":[24.000000,12.000038,34.137115]}
; object:{"name":"cableChain_40MountSide_v2","id":"cableChain_40MountSide_v2.stl id:2 copy 0","object_center":[98.135675,132.387315,0.000000],"boundingbox_center":[98.135675,132.387315,11.501841],"boundingbox_size":[41.199081,28.860016,23.003696]}
; object:{"name":"cableChain_40MountTop_v2","id":"cableChain_40MountTop_v2.stl id:3 copy 0","object_center":[112.893676,101.432269,0.000000],"boundingbox_center":[112.893676,101.432269,11.000000],"boundingbox_size":[28.860016,27.050078,22.000000]}
; object:{"name":"cableChain_Xend","id":"cableChain_Xend.stl id:4 copy 0","object_center":[83.126598,103.793196,0.000000],"boundingbox_center":[83.126598,103.793196,6.000020],"boundingbox_size":[24.674143,28.006184,12.000039]}
; object:{"name":"cableChain_XendCover","id":"cableChain_XendCover.stl id:5 copy 0","object_center":[110.014285,154.100827,0.000000],"boundingbox_center":[110.014285,154.100827,5.003094],"boundingbox_size":[21.397243,9.983963,10.006187]}

START_PRINT BED_TEMP=50 EXTRUDER_TEMP=210
G21 ; set units to millimeters
G90 ; use absolute coordinates
M83 ; use relative distances for extrusion
; Filament gcode
;BEFORE_LAYER_CHANGE
;0.24


G1 E-6.00000 F1500.00000
G1 Z0.240000 F10800.000
;AFTER_LAYER_CHANGE
;0.24
; printing object cableChain_bedCorner_v2.stl id:0 copy 0
G1 X135.809 Y129.463
G1 E6.00000 F1500.00000
M204 S500
G1 X135.809 Y137.217 E0.39342
G1 X141.063 Y137.217 E0.26657
G1 X141.063 Y129.463 E0.39342
G1 X135.869 Y129.463 E0.26353
G1 X136.318 Y129.971 F10800.000
G1 F1500.000
G1 X136.318 Y136.708 E0.34182
G1 X140.555 Y136.708 E0.21497
G1 X140.555 Y129.971 E0.34182
G1 X136.378 Y129.971 E0.21193
G1 X136.826 Y130.480 F10800.000
G1 F1500.000
G1 X136.826 Y136.200 E0.29022
G1 X140.046 Y136.200 E0.16337
G1 X140.046 Y130.480 E0.29022
G1 X136.886 Y130.480 E0.16033
G1 X136.426 Y130.480 F10800.000
G1 E-4.20000 F1500.00000
G1 F8640.000
G1 X136.826 Y136.200 E-0.94344
G1 X140.046 Y136.200 E-0.53107
G1 X140.046 Y134.772 E-0.23549
G1 E-0.09000 F1500.00000
G1 X126.389 Y129.463 F10800.000
G1 E6.00000 F1500.00000
G1 X126.389 Y137.217 E0.39342
G1 X131.643 Y137.217 E0.26657
G1 X131.643 Y129.463 E0.39342
G1 X126.449 Y129.463 E0.26353
G1 X126.898 Y129.971 F10800.000
G1 F1500.000
G1 X126.898 Y136.708 E0.34182
G1 X131.135 Y136.708 E0.21497
G1 X131.135 Y129.971 E0.34182
G1 X126.958 Y129.971 E0.21193
G1 X127.406 Y130.480 F10800.000
G1 F1500.000
G1 X127.406 Y136.200 E0.29022
G1 X130.626 Y136.200 E0.16337
G1 X130.626 Y130.480 E0.29022
G1 X127.466 Y130.480 E0.16033
G1 X127.006 Y130.480 F10800.000
G1 E-4.20000 F1500.00000
G1 F8640.000
G1 X127.406 Y136.200 E-0.94344
G1 X130.626 Y136.200 E-0.53107
G1 X130.626 Y134.772 E-0.23549
G1 E-0.09000 F1500.00000
G1 X125.372 Y129.597 F10800.000
G1 E6.00000 F1500.00000
G1 X125.372 Y144.111 E0.73640
G1 X124.099 Y144.111 E0.06460
G1 X124.099 Y129.597 E0.73640
G1 X125.312 Y129.597 E0.06156
G1 X125.881 Y129.088 F10800.000
G1 F1500.000
G1 X125.881 Y144.619 E0.78800
G1 X123.591 Y144.619 E0.11620
G1 X123.591 Y129.088 E0.78800
G1 X125.821 Y129.088 E0.11316
G1 E-4.20000
G1 F8640.000
G1 X125.861 Y139.456 E-1.71000
G1 E-0.09000 F1500.00000
G1 X132.660 Y129.597 F10800.000
G1 E6.00000 F1500.00000
G1 X134.792 Y129.597 E0.10818
G1 X134.792 Y144.111 E0.73640
G1 X132.660 Y144.111 E0.10818
G1 X132.660 Y129.657 E0.73335
G1 X132.152 Y129.088 F10800.000
G1 F1500.000
G1 X135.301 Y129.088 E0.15978
G1 X135.301 Y144.619 E0.78800
G1 X132.152 Y144.619 E0.15978
G1 X132.152 Y129.148 E0.78495
G1 E-4.20000
G1 F8640.000
G1 X135.301 Y129.088 E-0.51948
G1 X135.301 Y136.307 E-1.19052
G1 E-0.09000 F1500.00000
G1 X142.080 Y129.597 F10800.000
G1 E6.00000 F1500.00000
G1 X143.350 Y129.597 E0.06440
G1 X143.349 Y144.111 E0.73640
G1 X142.080 Y144.111 E0.06436
G1 X142.080 Y129.657 E0.73335
G1 X141.572 Y129.088 F10800.000
G1 F1500.000
G1 X143.858 Y129.088 E0.11601
G1 X143.857 Y144.619 E0.78800
G1 X141.572 Y144.619 E0.11595
G1 X141.572 Y129.148 E0.78495
G1 E-4.20000
G1 F8640.000
G1 X143.858 Y129.088 E-0.37722
G1 X143.858 Y137.169 E-1.33278
G1 E-0.09000 F1500.00000
G1 X141.063 Y137.963 F10800.000
G1 E6.00000 F1500.00000
G1 F1800.000
G1 X135.809 Y137.963 E0.26657
G1 X135.809 Y145.128 E0.36352
G1 X131.643 Y145.128 E0.21138
G1 X131.643 Y137.963 E0.36352
G1 X126.389 Y137.963 E0.26657
G1 X126.389 Y145.128 E0.36352
G1 X123.082 Y145.128 E0.16780
G1 X123.082 Y128.580 E0.83960
G1 X143.657 Y128.580 E1.04395
G1 X144.059 Y127.726 E0.04789
G1 X144.367 Y128.704 E0.05205
G1 X144.366 Y145.128 E0.83329
G1 X141.063 Y145.128 E0.16755
G1 X141.063 Y138.023 E0.36047
G1 E-4.20000 F1500.00000
G1 F8640.000
G1 X135.809 Y137.963 E-0.86659
G1 X135.809 Y143.077 E-0.84341
G1 E-0.09000 F1500.00000
G1 X148.044 Y95.438 F10800.000
G1 E6.00000 F1500.00000
G1 X148.726 Y95.487 E0.03470
G1 X149.309 Y95.455 E0.02959
G1 X149.884 Y95.359 E0.02960
G1 X150.436 Y95.202 E0.02912
G1 X150.891 Y95.020 E0.02487
G1 X151.484 Y94.710 E0.03393
G1 X151.976 Y94.367 E0.03047
G1 X152.400 Y93.996 E0.02856
G1 X152.727 Y93.650 E0.02416
G1 X153.077 Y93.197 E0.02903
G1 X153.380 Y92.699 E0.02960
G1 X153.627 Y92.170 E0.02960
G1 X153.813 Y91.617 E0.02958
G1 X153.937 Y91.047 E0.02960
G1 X153.997 Y90.475 E0.02920
G1 X153.997 Y89.986 E0.02481
G1 X153.929 Y89.323 E0.03382
G1 X153.793 Y88.736 E0.03057
G1 X153.605 Y88.204 E0.02864
G1 X153.405 Y87.771 E0.02417
G1 X153.116 Y87.280 E0.02895
G1 X152.766 Y86.813 E0.02960
G1 X152.366 Y86.388 E0.02960
G1 X151.922 Y86.010 E0.02960
G1 X151.439 Y85.683 E0.02959
G1 X150.928 Y85.414 E0.02928
G1 X150.475 Y85.233 E0.02476
G1 X149.836 Y85.049 E0.03373
G1 X149.240 Y84.958 E0.03062
G1 X148.674 Y84.934 E0.02872
G1 X148.199 Y84.960 E0.02417
G1 X147.636 Y85.046 E0.02886
G1 X147.073 Y85.198 E0.02960
G1 X146.530 Y85.411 E0.02960
G1 X146.013 Y85.683 E0.02960
G1 X145.531 Y86.010 E0.02959
G1 X145.090 Y86.385 E0.02936
G1 X144.755 Y86.738 E0.02470
G1 X144.348 Y87.262 E0.03365
G1 X144.041 Y87.782 E0.03067
G1 X143.808 Y88.300 E0.02881
G1 X143.656 Y88.752 E0.02417
G1 X143.528 Y89.304 E0.02878
G1 X143.459 Y89.883 E0.02960
G1 X143.458 Y90.075 E0.00971
G1 X143.455 Y90.467 E0.01989
G1 X143.516 Y91.047 E0.02960
G1 X143.640 Y91.617 E0.02960
G1 X143.825 Y92.167 E0.02943
G1 X144.029 Y92.608 E0.02465
G1 X144.362 Y93.179 E0.03356
G1 X144.732 Y93.659 E0.03073
G1 X145.137 Y94.078 E0.02960
G1 X145.574 Y94.440 E0.02875
G1 X145.968 Y94.707 E0.02417
G1 X146.467 Y94.979 E0.02883
G1 X147.027 Y95.207 E0.03069
G1 X147.668 Y95.377 E0.03362
G1 X147.985 Y95.429 E0.01629
G1 X148.067 Y94.927 F10800.000
G1 F1500.000
G1 X148.726 Y94.978 E0.03355
G1 X149.252 Y94.949 E0.02673
G1 X149.772 Y94.862 E0.02674
G1 X150.272 Y94.720 E0.02636
G1 X150.679 Y94.558 E0.02221
G1 X151.219 Y94.275 E0.03097
G1 X151.663 Y93.966 E0.02741
G1 X152.047 Y93.629 E0.02593
G1 X152.340 Y93.319 E0.02166
G1 X152.657 Y92.909 E0.02630
G1 X152.931 Y92.458 E0.02674
G1 X153.154 Y91.980 E0.02675
G1 X153.322 Y91.481 E0.02672
G1 X153.434 Y90.966 E0.02674
G1 X153.488 Y90.448 E0.02643
G1 X153.488 Y90.012 E0.02216
G1 X153.427 Y89.406 E0.03087
G1 X153.304 Y88.878 E0.02750
G1 X153.134 Y88.395 E0.02599
G1 X152.955 Y88.008 E0.02166
G1 X152.692 Y87.562 E0.02623
G1 X152.376 Y87.141 E0.02674
G1 X152.015 Y86.757 E0.02674
G1 X151.614 Y86.415 E0.02674
G1 X151.177 Y86.120 E0.02673
G1 X150.715 Y85.876 E0.02649
G1 X150.310 Y85.715 E0.02212
G1 X149.727 Y85.547 E0.03080
G1 X149.190 Y85.465 E0.02754
G1 X148.677 Y85.443 E0.02606
G1 X148.251 Y85.466 E0.02166
G1 X147.741 Y85.545 E0.02617
G1 X147.232 Y85.682 E0.02674
G1 X146.742 Y85.874 E0.02674
G1 X146.275 Y86.120 E0.02674
G1 X145.839 Y86.415 E0.02673
G1 X145.441 Y86.754 E0.02655
G1 X145.141 Y87.070 E0.02208
G1 X144.769 Y87.548 E0.03074
G1 X144.493 Y88.016 E0.02758
G1 X144.282 Y88.486 E0.02612
G1 X144.146 Y88.891 E0.02166
G1 X144.029 Y89.392 E0.02610
G1 X143.967 Y89.915 E0.02674
G1 X143.966 Y90.078 E0.00828
G1 X143.964 Y90.442 E0.01846
G1 X144.018 Y90.966 E0.02674
G1 X144.131 Y91.481 E0.02674
G1 X144.298 Y91.978 E0.02660
G1 X144.481 Y92.372 E0.02204
G1 X144.785 Y92.895 E0.03067
G1 X145.118 Y93.326 E0.02762
G1 X145.484 Y93.705 E0.02674
G1 X145.879 Y94.033 E0.02608
G1 X146.233 Y94.273 E0.02166
G1 X146.685 Y94.519 E0.02614
G1 X147.189 Y94.724 E0.02759
G1 X147.774 Y94.879 E0.03072
G1 X148.008 Y94.917 E0.01201
G1 X148.077 Y94.413 F10800.000
G1 F1500.000
G1 X148.259 Y94.443 E0.00933
G1 X148.726 Y94.469 E0.02376
G1 X149.196 Y94.443 E0.02387
G1 X149.660 Y94.365 E0.02388
G1 X150.108 Y94.238 E0.02361
G1 X150.466 Y94.095 E0.01955
G1 X150.955 Y93.839 E0.02800
G1 X151.349 Y93.565 E0.02436
G1 X151.694 Y93.262 E0.02330
G1 X151.954 Y92.988 E0.01915
G1 X152.237 Y92.620 E0.02356
G1 X152.482 Y92.218 E0.02388
G1 X152.681 Y91.791 E0.02389
G1 X152.831 Y91.346 E0.02386
G1 X152.931 Y90.886 E0.02388
G1 X152.980 Y90.422 E0.02366
G1 X152.980 Y90.037 E0.01951
G1 X152.924 Y89.490 E0.02792
G1 X152.815 Y89.021 E0.02442
G1 X152.662 Y88.587 E0.02334
G1 X152.504 Y88.244 E0.01916
G1 X152.268 Y87.845 E0.02352
G1 X151.986 Y87.469 E0.02388
G1 X151.663 Y87.125 E0.02388
G1 X151.305 Y86.820 E0.02388
G1 X150.916 Y86.556 E0.02387
G1 X150.502 Y86.339 E0.02370
G1 X150.145 Y86.197 E0.01949
G1 X149.618 Y86.045 E0.02788
G1 X149.141 Y85.972 E0.02445
G1 X148.681 Y85.952 E0.02339
G1 X148.304 Y85.973 E0.01916
G1 X147.846 Y86.043 E0.02347
G1 X147.392 Y86.165 E0.02388
G1 X146.954 Y86.337 E0.02388
G1 X146.537 Y86.556 E0.02388
G1 X146.147 Y86.820 E0.02387
G1 X145.791 Y87.124 E0.02375
G1 X145.527 Y87.402 E0.01946
G1 X145.190 Y87.835 E0.02783
G1 X144.945 Y88.250 E0.02448
G1 X144.756 Y88.672 E0.02344
G1 X144.635 Y89.030 E0.01916
G1 X144.531 Y89.479 E0.02342
G1 X144.475 Y90.082 E0.03070
G1 X144.473 Y90.417 E0.01703
G1 X144.521 Y90.886 E0.02388
G1 X144.622 Y91.346 E0.02388
G1 X144.771 Y91.790 E0.02378
G1 X144.932 Y92.137 E0.01943
G1 X145.208 Y92.610 E0.02778
G1 X145.503 Y92.993 E0.02451
G1 X145.830 Y93.331 E0.02388
G1 X146.185 Y93.626 E0.02341
G1 X146.498 Y93.838 E0.01916
G1 X146.904 Y94.059 E0.02345
G1 X147.351 Y94.241 E0.02449
G1 X148.018 Y94.403 E0.03486
G1 X148.160 Y93.911 F10800.000
G1 F1500.000
G1 X148.726 Y93.960 E0.02886
G1 X149.140 Y93.937 E0.02102
G1 X149.549 Y93.868 E0.02103
G1 X149.944 Y93.756 E0.02086
G1 X150.253 Y93.633 E0.01689
G1 X150.690 Y93.404 E0.02504
G1 X151.035 Y93.163 E0.02130
G1 X151.341 Y92.895 E0.02067
G1 X151.567 Y92.657 E0.01665
G1 X151.818 Y92.332 E0.02083
G1 X152.033 Y91.978 E0.02103
G1 X152.208 Y91.602 E0.02103
G1 X152.340 Y91.210 E0.02101
G1 X152.429 Y90.805 E0.02102
G1 X152.471 Y90.395 E0.02089
G1 X152.471 Y90.063 E0.01687
G1 X152.422 Y89.573 E0.02498
G1 X152.326 Y89.163 E0.02135
G1 X152.191 Y88.779 E0.02069
G1 X152.053 Y88.481 E0.01665
G1 X151.845 Y88.128 E0.02080
G1 X151.596 Y87.796 E0.02103
G1 X151.312 Y87.494 E0.02103
G1 X150.997 Y87.225 E0.02102
G1 X150.654 Y86.993 E0.02101
G1 X150.289 Y86.801 E0.02092
G1 X149.981 Y86.678 E0.01685
G1 X149.508 Y86.542 E0.02495
G1 X149.092 Y86.478 E0.02137
G1 X148.684 Y86.461 E0.02072
G1 X148.356 Y86.479 E0.01665
G1 X147.951 Y86.541 E0.02077
G1 X147.551 Y86.649 E0.02102
G1 X147.165 Y86.800 E0.02103
G1 X146.799 Y86.993 E0.02103
G1 X146.456 Y87.226 E0.02101
G1 X146.142 Y87.493 E0.02094
G1 X145.914 Y87.734 E0.01683
G1 X145.612 Y88.121 E0.02492
G1 X145.398 Y88.485 E0.02139
G1 X145.230 Y88.858 E0.02075
G1 X145.125 Y89.169 E0.01665
G1 X145.033 Y89.567 E0.02074
G1 X144.983 Y90.085 E0.02642
G1 X144.981 Y90.393 E0.01561
G1 X145.024 Y90.805 E0.02103
G1 X145.112 Y91.210 E0.02102
G1 X145.244 Y91.601 E0.02095
G1 X145.384 Y91.902 E0.01682
G1 X145.630 Y92.326 E0.02489
G1 X145.888 Y92.660 E0.02141
G1 X146.176 Y92.958 E0.02102
G1 X146.491 Y93.219 E0.02073
G1 X146.762 Y93.403 E0.01665
G1 X147.122 Y93.598 E0.02076
G1 X147.512 Y93.758 E0.02140
G1 X148.100 Y93.902 E0.03072
G1 X148.183 Y93.400 F10800.000
G1 F1500.000
G1 X148.370 Y93.430 E0.00961
G1 X148.726 Y93.450 E0.01813
G1 X149.084 Y93.430 E0.01816
G1 X149.437 Y93.371 E0.01817
G1 X149.780 Y93.274 E0.01811
G1 X150.041 Y93.170 E0.01423
G1 X150.425 Y92.968 E0.02204
G1 X150.721 Y92.762 E0.01827
G1 X150.988 Y92.528 E0.01804
G1 X151.180 Y92.326 E0.01415
G1 X151.398 Y92.043 E0.01810
G1 X151.584 Y91.738 E0.01817
G1 X151.735 Y91.413 E0.01817
G1 X151.849 Y91.074 E0.01815
G1 X151.926 Y90.724 E0.01817
G1 X151.963 Y90.369 E0.01812
G1 X151.963 Y90.089 E0.01422
G1 X151.919 Y89.657 E0.02203
G1 X151.837 Y89.306 E0.01828
G1 X151.719 Y88.970 E0.01805
G1 X151.602 Y88.717 E0.01415
G1 X151.421 Y88.410 E0.01809
G1 X151.206 Y88.124 E0.01817
G1 X150.961 Y87.863 E0.01817
G1 X150.688 Y87.631 E0.01816
G1 X150.392 Y87.430 E0.01815
G1 X150.076 Y87.264 E0.01813
G1 X149.816 Y87.160 E0.01422
G1 X149.399 Y87.040 E0.02202
G1 X149.042 Y86.985 E0.01829
G1 X148.687 Y86.970 E0.01806
G1 X148.408 Y86.986 E0.01415
G1 X148.056 Y87.040 E0.01808
G1 X147.711 Y87.133 E0.01817
G1 X147.377 Y87.263 E0.01817
G1 X147.060 Y87.430 E0.01817
G1 X146.764 Y87.631 E0.01815
G1 X146.492 Y87.863 E0.01813
G1 X146.300 Y88.066 E0.01421
G1 X146.033 Y88.408 E0.02201
G1 X145.850 Y88.719 E0.01829
G1 X145.704 Y89.043 E0.01807
G1 X145.615 Y89.308 E0.01415
G1 X145.534 Y89.655 E0.01806
G1 X145.492 Y90.089 E0.02214
G1 X145.490 Y90.368 E0.01418
G1 X145.527 Y90.724 E0.01817
G1 X145.603 Y91.074 E0.01817
G1 X145.717 Y91.413 E0.01813
G1 X145.835 Y91.667 E0.01421
G1 X146.053 Y92.041 E0.02200
G1 X146.274 Y92.327 E0.01830
G1 X146.522 Y92.584 E0.01816
G1 X146.796 Y92.812 E0.01806
G1 X147.027 Y92.968 E0.01415
G1 X147.340 Y93.138 E0.01807
G1 X147.674 Y93.274 E0.01830
G1 X148.123 Y93.390 E0.02355
G1 X148.245 Y93.579 F10800.000
G1 E-4.20000 F1500.00000
G1 F8640.000
G1 X148.370 Y93.430 E-0.04114
G1 X148.726 Y93.450 E-0.05894
G1 X149.084 Y93.430 E-0.05902
G1 X149.437 Y93.371 E-0.05905
G1 X149.780 Y93.274 E-0.05886
G1 X150.041 Y93.170 E-0.04626
G1 X150.425 Y92.968 E-0.07164
G1 X150.721 Y92.762 E-0.05940
G1 X150.988 Y92.528 E-0.05863
G1 X151.180 Y92.326 E-0.04598
G1 X151.398 Y92.043 E-0.05883
G1 X151.584 Y91.738 E-0.05905
G1 X151.735 Y91.413 E-0.05906
G1 X151.849 Y91.074 E-0.05899
G1 X151.926 Y90.724 E-0.05905
G1 X151.963 Y90.369 E-0.05890
G1 X151.963 Y90.089 E-0.04623
G1 X151.919 Y89.657 E-0.07161
G1 X151.837 Y89.306 E-0.05943
G1 X151.719 Y88.970 E-0.05866
G1 X151.602 Y88.717 E-0.04598
G1 X151.421 Y88.410 E-0.05879
G1 X151.206 Y88.124 E-0.05905
G1 X150.961 Y87.863 E-0.05905
G1 X150.688 Y87.631 E-0.05904
G1 X150.392 Y87.430 E-0.05901
G1 X150.076 Y87.264 E-0.05893
G1 X149.816 Y87.160 E-0.04622
G1 X149.399 Y87.040 E-0.07157
G1 X149.137 Y87.000 E-0.04364
G1 E-0.09000 F1500.00000
G1 X154.786 Y100.490 F10800.000
G1 E6.00000 F1500.00000
G1 F1800.000
G1 X154.513 Y100.253 E0.01836
G1 X153.979 Y99.904 E0.03235
G1 X153.435 Y99.675 E0.02992
G1 X152.958 Y99.546 E0.02510
G1 X152.397 Y99.475 E0.02866
G1 X151.769 Y99.493 E0.03191
G1 X150.747 Y99.723 E0.05313
G1 X150.230 Y99.818 E0.02668
G1 X149.561 Y99.897 E0.03416
G1 X148.670 Y99.934 E0.04527
G1 X147.999 Y99.906 E0.03407
G1 X147.103 Y99.798 E0.04579
G1 X146.591 Y99.697 E0.02646
G1 X146.086 Y99.569 E0.02646
G1 X145.588 Y99.414 E0.02646
G1 X145.105 Y99.235 E0.02611
G1 X144.500 Y98.968 E0.03354
G1 X143.712 Y98.542 E0.04545
G1 X143.151 Y98.177 E0.03398
G1 X142.738 Y97.872 E0.02604
G1 X142.333 Y97.538 E0.02663
G1 X141.581 Y96.806 E0.05325
G1 X141.243 Y96.421 E0.02596
G1 X140.697 Y95.692 E0.04625
G1 X140.042 Y94.687 E0.06088
G1 X139.611 Y94.238 E0.03157
G1 X139.162 Y93.895 E0.02866
G1 X138.731 Y93.652 E0.02511
G1 X138.183 Y93.434 E0.02992
